;FLAVOR:Marlin
;TIME:2377
;Filament used: 2.38194m
;Layer height: 0.28
;MINX:80.845
;MINY:75.098
;MINZ:0.28
;MAXX:157.664
;MAXY:159.858
;MAXZ:10.08
;Generated with Cura_SteamEngine 5.2.2
M140 S60
M105
M190 S60
M104 S210
M105
M109 S210
M82 ;absolute extrusion mode
; Ender 3 Custom Start G-code
G92 E0 ; Reset Extruder
G28 ; Home all axes
G1 Z2.0 F3000 ; Move Z Axis up little to prevent scratching of Heat Bed
G1 X0.1 Y20 Z0.3 F5000.0 ; Move to start position
G1 X0.1 Y200.0 Z0.3 F1500.0 E15 ; Draw the first line
G1 X0.4 Y200.0 Z0.3 F5000.0 ; Move to side a little
G1 X0.4 Y20 Z0.3 F1500.0 E30 ; Draw the second line
G92 E0 ; Reset Extruder
G1 Z2.0 F3000 ; Move Z Axis up little to prevent scratching of Heat Bed
G1 X5 Y20 Z0.3 F5000.0 ; Move over to prevent blob squish
G92 E0
G92 E0
G1 F2880 E-5.5
;LAYER_COUNT:36
;LAYER:0
M107
G0 F6000 X84.043 Y80.967 Z0.28
;TYPE:SKIRT
G1 F2880 E0
G1 F600 X84.732 Y80.319 E0.05285
G1 X85.474 Y79.731 E0.10575
G1 X86.262 Y79.208 E0.1586
G1 X87.092 Y78.753 E0.21149
G1 X87.958 Y78.37 E0.2644
G1 X88.852 Y78.061 E0.31725
G1 X89.77 Y77.829 E0.37016
G1 X90.704 Y77.676 E0.42304
G1 X91.74 Y77.598 E0.4811
G1 X92.375 Y77.585 E0.51659
G1 X118.387 Y77.585 E1.97006
G1 X120.986 Y77.548 E2.1153
G1 X123.496 Y77.442 E2.25568
G1 X126.017 Y77.263 E2.3969
G1 X128.497 Y77.017 E2.53615
G1 X130.987 Y76.698 E2.67642
G1 X133.471 Y76.308 E2.81692
G1 X135.943 Y75.849 E2.95741
G1 X137.781 Y75.458 E3.06241
G1 X138.362 Y75.348 E3.09545
G1 X139.077 Y75.237 E3.13588
G1 X139.394 Y75.198 E3.15373
G1 X140.074 Y75.135 E3.19189
G1 X140.334 Y75.119 E3.20644
G1 X141.126 Y75.098 E3.25071
G1 X141.558 Y75.102 E3.27485
G1 X142.35 Y75.138 E3.31915
G1 X142.699 Y75.166 E3.33872
G1 X143.509 Y75.261 E3.38429
G1 X143.788 Y75.304 E3.40006
G1 X144.587 Y75.454 E3.44549
G1 X145.291 Y75.624 E3.48596
G1 X145.687 Y75.733 E3.50891
G1 X146.459 Y75.975 E3.55411
G1 X146.803 Y76.097 E3.57451
G1 X147.507 Y76.374 E3.61678
G1 X148.207 Y76.689 E3.65967
G1 X148.451 Y76.808 E3.67484
G1 X149.303 Y77.271 E3.72902
G1 X149.743 Y77.535 E3.7577
G1 X150.531 Y78.048 E3.81024
G1 X151.159 Y78.519 E3.8541
G1 X151.399 Y78.71 E3.87124
G1 X151.988 Y79.211 E3.91444
G1 X152.418 Y79.61 E3.94722
G1 X152.619 Y79.807 E3.96295
G1 X153.188 Y80.403 E4.00899
G1 X153.743 Y81.052 E4.05671
G1 X154.058 Y81.45 E4.08507
G1 X154.563 Y82.14 E4.13285
G1 X154.712 Y82.361 E4.14774
G1 X155.146 Y83.059 E4.19367
G1 X155.336 Y83.391 E4.21504
G1 X155.84 Y84.383 E4.27721
G1 X156.093 Y84.949 E4.31186
G1 X156.409 Y85.735 E4.35919
G1 X156.516 Y86.033 E4.37689
G1 X156.758 Y86.791 E4.42135
G1 X156.958 Y87.554 E4.46542
G1 X157.021 Y87.83 E4.48124
G1 X157.156 Y88.518 E4.52042
G1 X157.203 Y88.806 E4.53672
G1 X157.298 Y89.514 E4.57664
G1 X157.357 Y90.179 E4.61394
G1 X157.373 Y90.451 E4.62917
G1 X157.394 Y91.25 E4.67383
G1 X157.376 Y92.028 E4.71731
G1 X157.34 Y92.613 E4.75006
G1 X157.303 Y93.028 E4.77334
G1 X157.041 Y95.557 E4.91541
G1 X156.856 Y98.024 E5.05365
G1 X156.737 Y100.566 E5.19584
G1 X156.691 Y103.078 E5.33623
G1 X156.715 Y105.555 E5.47464
G1 X156.813 Y108.111 E5.61757
G1 X156.975 Y110.564 E5.75493
G1 X157.216 Y113.097 E5.89711
G1 X157.398 Y114.527 E5.97766
G1 X157.571 Y116.015 E6.06136
G1 X157.626 Y116.638 E6.09631
G1 X157.642 Y116.905 E6.11126
G1 X157.664 Y117.723 E6.15698
G1 X157.646 Y118.502 E6.20052
G1 X157.611 Y119.066 E6.23209
G1 X157.554 Y119.656 E6.26522
G1 X157.482 Y120.268 E6.29965
G1 X157.213 Y122.87 E6.44582
G1 X157.026 Y125.372 E6.58601
G1 X156.908 Y127.892 E6.72697
G1 X156.863 Y130.398 E6.86702
G1 X156.887 Y132.873 E7.00533
G1 X156.986 Y135.429 E7.14826
G1 X157.15 Y137.889 E7.28602
G1 X157.47 Y141.134 E7.46822
G1 X157.563 Y141.938 E7.51344
G1 X157.618 Y142.559 E7.54828
G1 X157.634 Y142.826 E7.56322
G1 X157.656 Y143.644 E7.60895
G1 X157.638 Y144.423 E7.65249
G1 X157.577 Y145.274 E7.70016
G1 X157.491 Y145.977 E7.73974
G1 X157.341 Y146.87 E7.79033
G1 X157.168 Y147.615 E7.83307
G1 X156.971 Y148.328 E7.8744
G1 X156.885 Y148.607 E7.89072
G1 X156.573 Y149.486 E7.94283
G1 X156.419 Y149.869 E7.9659
G1 X156.139 Y150.509 E8.00493
G1 X155.987 Y150.828 E8.02468
G1 X155.488 Y151.759 E8.0837
G1 X155.226 Y152.197 E8.11222
G1 X154.698 Y153.008 E8.16629
G1 X154.063 Y153.835 E8.22456
G1 X153.716 Y154.25 E8.25478
G1 X153.109 Y154.919 E8.30526
G1 X152.551 Y155.469 E8.34904
G1 X152.351 Y155.654 E8.36426
G1 X151.688 Y156.221 E8.41301
G1 X151.293 Y156.533 E8.44113
G1 X150.601 Y157.038 E8.489
G1 X150.314 Y157.231 E8.50833
G1 X149.38 Y157.795 E8.56929
G1 X148.972 Y158.015 E8.59519
G1 X148.231 Y158.38 E8.64135
G1 X147.945 Y158.508 E8.65886
G1 X147.186 Y158.815 E8.70461
G1 X146.761 Y158.969 E8.72987
G1 X145.922 Y159.236 E8.77906
G1 X145.65 Y159.311 E8.79483
G1 X144.957 Y159.481 E8.8347
G1 X144.347 Y159.604 E8.86947
G1 X143.597 Y159.721 E8.91188
G1 X143.281 Y159.76 E8.92968
G1 X142.602 Y159.823 E8.96778
G1 X141.783 Y159.858 E9.01358
G1 X140.919 Y159.853 E9.06186
G1 X140.131 Y159.807 E9.10597
G1 X139.864 Y159.783 E9.12095
G1 X139.161 Y159.697 E9.16052
G1 X138.372 Y159.564 E9.20523
G1 X136.945 Y159.275 E9.28659
G1 X135.935 Y159.06 E9.34429
G1 X133.479 Y158.61 E9.48381
G1 X131.008 Y158.229 E9.62351
G1 X128.508 Y157.915 E9.7643
G1 X125.987 Y157.671 E9.90582
G1 X123.502 Y157.502 E10.045
G1 X120.98 Y157.401 E10.18603
G1 X118.637 Y157.371 E10.31696
G1 X92.854 Y157.37 E11.75764
G1 X92.156 Y157.36 E11.79665
G1 X91.211 Y157.306 E11.84954
G1 X90.274 Y157.173 E11.90242
G1 X89.351 Y156.962 E11.95532
G1 X88.45 Y156.673 E12.0082
G1 X87.577 Y156.309 E12.06105
G1 X86.737 Y155.872 E12.11396
G1 X85.937 Y155.367 E12.16682
G1 X85.182 Y154.795 E12.21975
G1 X84.479 Y154.162 E12.27261
G1 X83.832 Y153.472 E12.32546
G1 X83.245 Y152.73 E12.37832
G1 X82.722 Y151.941 E12.43122
G1 X82.269 Y151.11 E12.4841
G1 X81.887 Y150.244 E12.53699
G1 X81.579 Y149.349 E12.58988
G1 X81.349 Y148.431 E12.64276
G1 X81.196 Y147.497 E12.69564
G1 X81.12 Y146.465 E12.75347
G1 X81.107 Y145.829 E12.78901
G1 X81.108 Y141.711 E13.01911
G1 X81.118 Y141.019 E13.05778
G1 X81.169 Y140.1 E13.10921
G1 X81.233 Y139.44 E13.14627
G1 X81.446 Y136.918 E13.28769
G1 X81.586 Y134.429 E13.42699
G1 X81.657 Y131.886 E13.56914
G1 X81.655 Y129.372 E13.70961
G1 X81.584 Y126.894 E13.84813
G1 X81.443 Y124.415 E13.98688
G1 X81.282 Y122.674 E14.08457
G1 X81.268 Y122.401 E14.09985
G1 X81.165 Y121.201 E14.16715
G1 X81.128 Y120.555 E14.2033
G1 X81.115 Y119.92 E14.23879
G1 X81.116 Y115.79 E14.46956
G1 X81.126 Y115.098 E14.50823
G1 X81.153 Y114.474 E14.54313
G1 X81.194 Y113.897 E14.57546
G1 X81.351 Y112.058 E14.67859
G1 X81.494 Y109.542 E14.8194
G1 X81.565 Y107.067 E14.95775
G1 X81.565 Y104.555 E15.09812
G1 X81.494 Y102.005 E15.24066
G1 X81.354 Y99.532 E15.37906
G1 X81.139 Y96.989 E15.52167
G1 X80.92 Y94.98 E15.63459
G1 X80.859 Y94.09 E15.68444
G1 X80.845 Y93.455 E15.71993
G1 X80.846 Y89.337 E15.95003
G1 X80.855 Y88.648 E15.98853
G1 X80.907 Y87.703 E16.04141
G1 X81.039 Y86.766 E16.09429
G1 X81.25 Y85.843 E16.14719
G1 X81.537 Y84.941 E16.20008
G1 X81.9 Y84.067 E16.25296
G1 X82.335 Y83.227 E16.30582
G1 X82.84 Y82.427 E16.35868
G1 X83.411 Y81.671 E16.41162
G1 X84.043 Y80.967 E16.46449
G0 F6000 X84.513 Y81.174
G1 F600 X85.199 Y80.552 E16.51623
G1 X85.936 Y79.991 E16.56798
G1 X86.718 Y79.496 E16.6197
G1 X87.54 Y79.071 E16.6714
G1 X88.396 Y78.717 E16.72316
G1 X89.279 Y78.439 E16.77489
G1 X90.183 Y78.239 E16.82662
G1 X91.101 Y78.116 E16.87838
G1 X91.754 Y78.078 E16.91493
G1 X92.375 Y78.065 E16.94963
G1 X118.393 Y78.065 E18.40344
G1 X121.013 Y78.028 E18.54986
G1 X123.515 Y77.922 E18.68979
G1 X126.026 Y77.744 E18.83044
G1 X128.572 Y77.491 E18.97341
G1 X131.05 Y77.174 E19.113
G1 X133.566 Y76.779 E19.25531
G1 X136.015 Y76.324 E19.39449
G1 X137.621 Y75.98 E19.48627
G1 X138.451 Y75.82 E19.5335
G1 X139.136 Y75.713 E19.57224
G1 X139.453 Y75.674 E19.59009
G1 X140.104 Y75.614 E19.62662
G1 X140.364 Y75.598 E19.64117
G1 X141.121 Y75.578 E19.68348
G1 X141.553 Y75.582 E19.70762
G1 X142.311 Y75.616 E19.75002
G1 X142.66 Y75.644 E19.76959
G1 X143.436 Y75.735 E19.81324
G1 X143.715 Y75.778 E19.82902
G1 X144.489 Y75.924 E19.87303
G1 X145.164 Y76.086 E19.91182
G1 X145.56 Y76.195 E19.93477
G1 X146.298 Y76.428 E19.97801
G1 X146.642 Y76.55 E19.99841
G1 X147.317 Y76.815 E20.03892
G1 X147.996 Y77.121 E20.08054
G1 X148.24 Y77.24 E20.09571
G1 X149.056 Y77.683 E20.14759
G1 X149.496 Y77.947 E20.17626
G1 X150.254 Y78.44 E20.22679
G1 X150.86 Y78.895 E20.26913
G1 X151.1 Y79.086 E20.28627
G1 X151.671 Y79.571 E20.32813
G1 X152.283 Y80.15 E20.37521
G1 X152.835 Y80.729 E20.41991
G1 X153.367 Y81.35 E20.4656
G1 X153.682 Y81.748 E20.49396
G1 X154.165 Y82.408 E20.53966
G1 X154.314 Y82.629 E20.55455
G1 X154.729 Y83.297 E20.5985
G1 X154.919 Y83.629 E20.61987
G1 X155.402 Y84.579 E20.67942
G1 X155.655 Y85.145 E20.71406
G1 X155.957 Y85.897 E20.75934
G1 X156.064 Y86.195 E20.77704
G1 X156.296 Y86.921 E20.81962
G1 X156.49 Y87.66 E20.86232
G1 X156.553 Y87.936 E20.87813
G1 X156.682 Y88.595 E20.91566
G1 X156.729 Y88.883 E20.93196
G1 X156.821 Y89.571 E20.97075
G1 X156.878 Y90.207 E21.00643
G1 X156.912 Y91.018 E21.05178
G1 X156.907 Y91.737 E21.09196
G1 X156.862 Y92.57 E21.13857
G1 X156.81 Y93.141 E21.17061
G1 X156.564 Y95.509 E21.30364
G1 X156.374 Y98.035 E21.44518
G1 X156.257 Y100.536 E21.58509
G1 X156.211 Y103.074 E21.72692
G1 X156.235 Y105.579 E21.8669
G1 X156.331 Y108.09 E22.00731
G1 X156.501 Y110.642 E22.15023
G1 X156.738 Y113.14 E22.29043
G1 X156.921 Y114.582 E22.37166
G1 X157.094 Y116.07 E22.45536
G1 X157.147 Y116.667 E22.48885
G1 X157.163 Y116.934 E22.5038
G1 X157.184 Y117.727 E22.54812
G1 X157.166 Y118.484 E22.59043
G1 X157.133 Y119.024 E22.62066
G1 X157.077 Y119.6 E22.653
G1 X157.003 Y120.231 E22.6885
G1 X156.735 Y122.822 E22.83405
G1 X156.546 Y125.348 E22.97559
G1 X156.428 Y127.861 E23.11616
G1 X156.383 Y130.394 E23.25772
G1 X156.407 Y132.897 E23.39759
G1 X156.506 Y135.443 E23.53996
G1 X156.672 Y137.936 E23.67957
G1 X156.986 Y141.12 E23.85834
G1 X157.087 Y141.993 E23.90745
G1 X157.139 Y142.588 E23.94082
G1 X157.155 Y142.855 E23.95577
G1 X157.176 Y143.648 E24.0001
G1 X157.158 Y144.405 E24.04241
G1 X157.099 Y145.231 E24.08868
G1 X157.017 Y145.904 E24.12656
G1 X156.974 Y146.183 E24.14234
G1 X156.842 Y146.895 E24.1828
G1 X156.704 Y147.493 E24.21709
G1 X156.512 Y148.187 E24.25733
G1 X156.426 Y148.466 E24.27364
G1 X156.128 Y149.307 E24.3235
G1 X155.974 Y149.69 E24.34656
G1 X155.706 Y150.302 E24.38389
G1 X155.554 Y150.621 E24.40364
G1 X155.076 Y151.513 E24.46019
G1 X154.814 Y151.951 E24.4887
G1 X154.306 Y152.732 E24.54076
G1 X153.695 Y153.527 E24.59679
G1 X153.348 Y153.942 E24.62702
G1 X152.767 Y154.583 E24.67536
G1 X152.225 Y155.117 E24.71787
G1 X152.025 Y155.302 E24.7331
G1 X151.391 Y155.844 E24.7797
G1 X150.996 Y156.156 E24.80783
G1 X150.333 Y156.64 E24.8537
G1 X150.046 Y156.833 E24.87302
G1 X149.152 Y157.373 E24.93138
G1 X148.744 Y157.593 E24.95728
G1 X148.035 Y157.942 E25.00144
G1 X147.749 Y158.07 E25.01895
G1 X147.022 Y158.364 E25.06277
G1 X146.597 Y158.518 E25.08803
G1 X145.795 Y158.773 E25.13505
G1 X145.523 Y158.848 E25.15082
G1 X144.849 Y159.013 E25.18959
G1 X144.265 Y159.131 E25.22288
G1 X143.538 Y159.244 E25.26399
G1 X143.222 Y159.283 E25.28178
G1 X142.572 Y159.343 E25.31826
G1 X141.778 Y159.378 E25.36267
G1 X140.939 Y159.373 E25.40955
G1 X140.174 Y159.329 E25.45236
G1 X139.907 Y159.305 E25.46734
G1 X139.234 Y159.223 E25.50523
G1 X138.467 Y159.093 E25.5487
G1 X137.045 Y158.805 E25.62977
G1 X136.048 Y158.593 E25.68672
G1 X133.571 Y158.139 E25.82743
G1 X131.068 Y157.753 E25.96895
G1 X128.546 Y157.437 E26.11097
G1 X126.031 Y157.193 E26.25216
G1 X123.517 Y157.022 E26.39296
G1 X121.005 Y156.921 E26.53344
G1 X118.644 Y156.891 E26.66537
G1 X92.86 Y156.89 E28.10611
G1 X92.162 Y156.88 E28.14511
G1 X91.238 Y156.827 E28.19683
G1 X90.322 Y156.694 E28.24855
G1 X89.42 Y156.483 E28.30031
G1 X88.541 Y156.194 E28.35201
G1 X87.689 Y155.831 E28.40376
G1 X86.872 Y155.396 E28.45548
G1 X86.095 Y154.892 E28.50723
G1 X85.365 Y154.322 E28.55898
G1 X84.687 Y153.692 E28.6107
G1 X84.066 Y153.006 E28.6624
G1 X83.506 Y152.268 E28.71417
G1 X83.012 Y151.485 E28.7659
G1 X82.587 Y150.663 E28.81761
G1 X82.235 Y149.806 E28.86937
G1 X81.958 Y148.923 E28.92108
G1 X81.758 Y148.019 E28.97282
G1 X81.637 Y147.101 E29.02456
G1 X81.6 Y146.451 E29.06094
G1 X81.587 Y145.829 E29.0957
G1 X81.588 Y141.718 E29.32541
G1 X81.598 Y141.026 E29.36408
G1 X81.647 Y140.146 E29.41333
G1 X81.705 Y139.547 E29.44696
G1 X81.924 Y136.948 E29.59269
G1 X82.066 Y134.434 E29.73339
G1 X82.137 Y131.899 E29.8751
G1 X82.135 Y129.393 E30.01513
G1 X82.062 Y126.854 E30.15706
G1 X81.921 Y124.372 E30.29597
G1 X81.76 Y122.63 E30.39372
G1 X81.746 Y122.343 E30.40977
G1 X81.644 Y121.159 E30.47618
G1 X81.608 Y120.541 E30.51077
G1 X81.595 Y119.92 E30.54548
G1 X81.596 Y115.797 E30.77586
G1 X81.606 Y115.105 E30.81453
G1 X81.631 Y114.507 E30.84797
G1 X81.827 Y112.128 E30.98135
G1 X81.972 Y109.582 E31.12385
G1 X82.045 Y107.046 E31.26561
G1 X82.045 Y104.541 E31.40558
G1 X81.974 Y102 E31.54762
G1 X81.833 Y99.502 E31.68742
G1 X81.616 Y96.936 E31.83132
G1 X81.397 Y94.928 E31.94418
G1 X81.338 Y94.076 E31.9919
G1 X81.325 Y93.455 E32.02661
G1 X81.326 Y89.343 E32.25638
G1 X81.335 Y88.654 E32.29488
G1 X81.387 Y87.73 E32.34659
G1 X81.519 Y86.813 E32.39836
G1 X81.729 Y85.911 E32.45011
G1 X82.016 Y85.031 E32.50183
G1 X82.378 Y84.179 E32.55355
G1 X82.812 Y83.362 E32.60525
G1 X83.316 Y82.584 E32.65704
G1 X83.884 Y81.854 E32.70873
G1 X84.513 Y81.174 E32.76049
G0 F6000 X84.983 Y81.387
G1 F600 X85.665 Y80.792 E32.81106
G1 X86.396 Y80.259 E32.86161
G1 X87.172 Y79.793 E32.91219
G1 X87.985 Y79.397 E32.96272
G1 X88.831 Y79.074 E33.01332
G1 X89.702 Y78.828 E33.06389
G1 X90.591 Y78.659 E33.11446
G1 X91.767 Y78.558 E33.18041
G1 X92.375 Y78.545 E33.21439
G1 X118.4 Y78.545 E34.66859
G1 X121.006 Y78.508 E34.81422
G1 X123.569 Y78.399 E34.95756
G1 X126.07 Y78.222 E35.09766
G1 X128.612 Y77.97 E35.2404
G1 X131.118 Y77.649 E35.38157
G1 X133.614 Y77.257 E35.52275
G1 X136.173 Y76.781 E35.66819
G1 X137.722 Y76.45 E35.7567
G1 X138.54 Y76.292 E35.80325
G1 X139.195 Y76.19 E35.84029
G1 X139.512 Y76.151 E35.85814
G1 X140.133 Y76.093 E35.89299
G1 X140.393 Y76.077 E35.90754
G1 X141.117 Y76.058 E35.94801
G1 X141.549 Y76.062 E35.97215
G1 X142.273 Y76.095 E36.01265
G1 X142.622 Y76.123 E36.03221
G1 X143.363 Y76.209 E36.07389
G1 X143.642 Y76.252 E36.08967
G1 X144.392 Y76.394 E36.13232
G1 X145.037 Y76.549 E36.16939
G1 X145.433 Y76.658 E36.19234
G1 X146.138 Y76.88 E36.23364
G1 X146.482 Y77.002 E36.25403
G1 X147.126 Y77.255 E36.29269
G1 X147.786 Y77.552 E36.33314
G1 X148.03 Y77.671 E36.3483
G1 X148.809 Y78.094 E36.39784
G1 X149.249 Y78.358 E36.42651
G1 X149.979 Y78.834 E36.4752
G1 X150.561 Y79.271 E36.51587
G1 X150.801 Y79.462 E36.53301
G1 X151.353 Y79.931 E36.57348
G1 X151.947 Y80.493 E36.61918
G1 X152.482 Y81.054 E36.66249
G1 X152.99 Y81.648 E36.70617
G1 X153.305 Y82.046 E36.73453
G1 X153.767 Y82.677 E36.77823
G1 X153.916 Y82.898 E36.79312
G1 X154.313 Y83.536 E36.83511
G1 X154.503 Y83.868 E36.85648
G1 X154.964 Y84.775 E36.91333
G1 X155.217 Y85.341 E36.94797
G1 X155.506 Y86.06 E36.99127
G1 X155.613 Y86.358 E37.00897
G1 X155.834 Y87.051 E37.04961
G1 X156.022 Y87.767 E37.09097
G1 X156.085 Y88.043 E37.10679
G1 X156.208 Y88.673 E37.14266
G1 X156.255 Y88.961 E37.15897
G1 X156.344 Y89.628 E37.19657
G1 X156.398 Y90.236 E37.23067
G1 X156.432 Y91.022 E37.27463
G1 X156.427 Y91.72 E37.31364
G1 X156.384 Y92.527 E37.35879
G1 X156.347 Y92.942 E37.38207
G1 X156.086 Y95.457 E37.52336
G1 X155.897 Y97.976 E37.66451
G1 X155.777 Y100.54 E37.80793
G1 X155.731 Y103.07 E37.94933
G1 X155.755 Y105.567 E38.08886
G1 X155.854 Y108.141 E38.23279
G1 X156.022 Y110.683 E38.37514
G1 X156.26 Y113.186 E38.51563
G1 X156.444 Y114.637 E38.59736
G1 X156.617 Y116.125 E38.68106
G1 X156.668 Y116.695 E38.71304
G1 X156.702 Y117.49 E38.7575
G1 X156.697 Y118.199 E38.79712
G1 X156.654 Y118.982 E38.84094
G1 X156.6 Y119.544 E38.87249
G1 X156.533 Y120.109 E38.90428
G1 X156.254 Y122.805 E39.05573
G1 X156.068 Y125.289 E39.19492
G1 X155.948 Y127.865 E39.33901
G1 X155.902 Y130.391 E39.48018
G1 X155.928 Y132.92 E39.6215
G1 X156.025 Y135.458 E39.76342
G1 X156.192 Y137.952 E39.90309
