;FLAVOR:Marlin
;TIME:3622
;Filament used: 3.31729m
;Layer height: 0.2
;MINX:36.311
;MINY:38.55
;MINZ:0.2
;MAXX:198.689
;MAXY:196.435
;MAXZ:4
;Generated with Cura_SteamEngine 5.2.2
M140 S60
M105
M190 S60
M104 S210
M105
M109 S210
M82 ;absolute extrusion mode
; Ender 3 Custom Start G-code
G92 E0 ; Reset Extruder
G28 ; Home all axes
G1 Z2.0 F3000 ; Move Z Axis up little to prevent scratching of Heat Bed
G1 X0.1 Y20 Z0.3 F5000.0 ; Move to start position
G1 X0.1 Y200.0 Z0.3 F1500.0 E15 ; Draw the first line
G1 X0.4 Y200.0 Z0.3 F5000.0 ; Move to side a little
G1 X0.4 Y20 Z0.3 F1500.0 E30 ; Draw the second line
G92 E0 ; Reset Extruder
G1 Z2.0 F3000 ; Move Z Axis up little to prevent scratching of Heat Bed
G1 X5 Y20 Z0.3 F5000.0 ; Move over to prevent blob squish
G92 E0
G92 E0
G1 F2880 E-5.5
;LAYER_COUNT:20
;LAYER:0
M107
G0 F9000 X59.519 Y58.414 Z0.2
;TYPE:SKIRT
G1 F2880 E0
G1 F3000 X60.139 Y57.789 E0.03514
G1 X61.405 Y56.553 E0.10575
G1 X61.901 Y56.083 E0.13303
G1 X63.451 Y54.664 E0.2169
G1 X64.02 Y54.162 E0.24718
G1 X65.392 Y52.988 E0.31925
G1 X65.999 Y52.484 E0.35074
G1 X67.556 Y51.239 E0.43031
G1 X68.08 Y50.834 E0.45674
G1 X70.11 Y49.217 E0.56033
G1 X72.024 Y47.603 E0.66026
G1 X73.9 Y45.928 E0.76063
G1 X75.753 Y44.178 E0.86236
G1 X77.131 Y42.809 E0.93989
G1 X78.027 Y41.899 E0.99086
G1 X78.719 Y41.254 E1.02861
G1 X79.463 Y40.669 E1.06639
G1 X80.254 Y40.149 E1.10417
G1 X81.085 Y39.698 E1.14191
G1 X81.952 Y39.318 E1.17969
G1 X82.848 Y39.013 E1.21746
G1 X83.767 Y38.785 E1.25525
G1 X84.701 Y38.635 E1.29301
G1 X85.695 Y38.563 E1.33279
G1 X86.33 Y38.55 E1.35814
G1 X148.452 Y38.551 E3.83756
G1 X149.155 Y38.561 E3.86562
G1 X150.1 Y38.615 E3.9034
G1 X151.037 Y38.748 E3.94117
G1 X151.96 Y38.959 E3.97896
G1 X152.861 Y39.248 E4.01673
G1 X153.734 Y39.612 E4.05448
G1 X154.574 Y40.048 E4.09225
G1 X155.374 Y40.554 E4.13003
G1 X156.129 Y41.125 E4.16781
G1 X156.966 Y41.892 E4.21312
G1 X158.761 Y43.71 E4.31509
G1 X160.607 Y45.479 E4.41714
G1 X162.46 Y47.159 E4.51697
G1 X164.358 Y48.781 E4.61661
G1 X166.888 Y50.809 E4.74603
G1 X167.589 Y51.353 E4.78144
G1 X168.884 Y52.389 E4.84763
G1 X169.668 Y53.039 E4.88828
G1 X171.084 Y54.253 E4.96272
G1 X171.727 Y54.823 E4.99702
G1 X172.941 Y55.936 E5.06275
G1 X173.588 Y56.547 E5.09827
G1 X174.993 Y57.921 E5.17671
G1 X175.613 Y58.55 E5.21196
G1 X176.788 Y59.781 E5.27988
G1 X177.475 Y60.523 E5.32024
G1 X178.729 Y61.929 E5.39543
G1 X179.149 Y62.416 E5.4211
G1 X180.347 Y63.849 E5.49565
G1 X180.979 Y64.632 E5.53581
G1 X182.034 Y65.984 E5.60425
G1 X182.636 Y66.781 E5.64412
G1 X183.733 Y68.291 E5.71861
G1 X184.219 Y68.984 E5.75239
G1 X185.163 Y70.377 E5.81955
G1 X185.737 Y71.254 E5.86139
G1 X186.603 Y72.627 E5.92618
G1 X187.151 Y73.528 E5.96827
G1 X187.996 Y74.972 E6.03504
G1 X188.525 Y75.914 E6.07816
G1 X189.282 Y77.312 E6.14162
G1 X189.711 Y78.135 E6.17866
G1 X190.509 Y79.732 E6.24991
G1 X190.961 Y80.677 E6.29172
G1 X191.751 Y82.406 E6.36759
G1 X192.075 Y83.151 E6.40002
G1 X192.804 Y84.898 E6.47557
G1 X193.052 Y85.521 E6.50233
G1 X193.765 Y87.4 E6.58255
G1 X194.036 Y88.156 E6.6146
G1 X194.67 Y90.014 E6.69295
G1 X194.871 Y90.638 E6.71912
G1 X195.386 Y92.322 E6.7894
G1 X195.683 Y93.357 E6.83238
G1 X196.167 Y95.162 E6.90697
G1 X196.33 Y95.81 E6.93364
G1 X196.75 Y97.604 E7.00717
G1 X196.938 Y98.467 E7.04243
G1 X197.291 Y100.241 E7.11462
G1 X197.481 Y101.288 E7.15709
G1 X197.75 Y102.924 E7.22326
G1 X197.901 Y103.952 E7.26473
G1 X198.115 Y105.6 E7.33106
G1 X198.216 Y106.48 E7.36641
G1 X198.408 Y108.47 E7.44621
G1 X198.463 Y109.161 E7.47387
G1 X198.588 Y111.156 E7.55365
G1 X198.62 Y111.84 E7.58098
G1 X198.68 Y113.914 E7.6638
G1 X198.689 Y114.759 E7.69752
G1 X198.68 Y116.564 E7.76957
G1 X198.666 Y117.267 E7.79763
G1 X198.59 Y119.297 E7.87871
G1 X198.543 Y120.134 E7.91217
G1 X198.422 Y121.838 E7.98035
G1 X198.334 Y122.843 E8.02062
G1 X198.162 Y124.497 E8.08699
G1 X198.058 Y125.361 E8.12172
G1 X197.774 Y127.412 E8.20436
G1 X197.647 Y128.222 E8.23708
G1 X197.339 Y130.005 E8.3093
G1 X197.18 Y130.841 E8.34327
G1 X196.813 Y132.611 E8.41541
G1 X196.614 Y133.497 E8.45166
G1 X196.156 Y135.378 E8.52892
G1 X195.948 Y136.173 E8.56172
G1 X195.457 Y137.937 E8.6348
G1 X195.215 Y138.75 E8.66866
G1 X194.714 Y140.348 E8.7355
G1 X194.447 Y141.154 E8.76939
G1 X193.763 Y143.103 E8.85183
G1 X193.472 Y143.889 E8.88528
G1 X192.865 Y145.45 E8.95213
G1 X192.493 Y146.36 E8.99137
G1 X191.808 Y147.964 E9.06098
G1 X191.491 Y148.676 E9.09209
G1 X190.599 Y150.585 E9.17618
G1 X190.21 Y151.377 E9.2114
G1 X189.425 Y152.917 E9.28039
G1 X189.068 Y153.592 E9.31087
G1 X188.19 Y155.186 E9.3835
G1 X187.688 Y156.065 E9.4239
G1 X186.797 Y157.558 E9.4933
G1 X186.365 Y158.258 E9.52613
G1 X185.284 Y159.942 E9.60599
G1 X184.8 Y160.668 E9.64082
G1 X183.821 Y162.085 E9.70956
G1 X183.236 Y162.903 E9.7497
G1 X182.153 Y164.363 E9.82225
G1 X181.729 Y164.916 E9.85006
G1 X180.453 Y166.523 E9.93196
G1 X179.931 Y167.156 E9.96471
G1 X178.725 Y168.574 E10.03901
G1 X178.273 Y169.089 E10.06635
G1 X177.045 Y170.443 E10.13931
G1 X176.325 Y171.21 E10.1813
G1 X175.017 Y172.555 E10.25618
G1 X174.55 Y173.02 E10.28248
G1 X173.104 Y174.412 E10.36259
G1 X172.478 Y174.994 E10.39671
G1 X171.063 Y176.266 E10.47265
G1 X170.459 Y176.79 E10.50456
G1 X169.01 Y178.009 E10.58014
G1 X168.36 Y178.536 E10.61354
G1 X166.902 Y179.681 E10.68753
G1 X166.37 Y180.086 E10.71421
G1 X164.879 Y181.182 E10.78807
G1 X164.071 Y181.755 E10.8276
G1 X162.48 Y182.842 E10.90451
G1 X161.78 Y183.303 E10.93796
G1 X160.225 Y184.29 E11.01147
G1 X159.692 Y184.617 E11.03643
G1 X157.885 Y185.685 E11.12021
G1 X157.305 Y186.015 E11.14684
G1 X155.702 Y186.891 E11.21975
G1 X154.772 Y187.38 E11.26169
G1 X153.278 Y188.132 E11.32844
G1 X152.359 Y188.576 E11.36918
G1 X150.838 Y189.281 E11.43609
G1 X149.922 Y189.686 E11.47606
G1 X148.308 Y190.368 E11.546
G1 X147.335 Y190.76 E11.58786
G1 X145.847 Y191.33 E11.65146
G1 X144.89 Y191.681 E11.69215
G1 X143.253 Y192.248 E11.76129
G1 X142.28 Y192.566 E11.80215
G1 X140.707 Y193.053 E11.86787
G1 X139.895 Y193.291 E11.90164
G1 X137.901 Y193.837 E11.98415
G1 X137.261 Y194 E12.01051
G1 X135.274 Y194.472 E12.09203
G1 X134.405 Y194.662 E12.12753
G1 X132.683 Y195.009 E12.19764
G1 X131.942 Y195.147 E12.22772
G1 X129.995 Y195.474 E12.30652
G1 X129.128 Y195.604 E12.34151
G1 X127.458 Y195.828 E12.40876
G1 X126.405 Y195.951 E12.45107
G1 X124.79 Y196.112 E12.51585
G1 X123.721 Y196.201 E12.55867
G1 X121.915 Y196.32 E12.6309
G1 X121.072 Y196.362 E12.66459
G1 X119.143 Y196.425 E12.74162
G1 X118.586 Y196.434 E12.76386
G1 X116.548 Y196.435 E12.8452
G1 X115.805 Y196.423 E12.87486
G1 X113.962 Y196.363 E12.94845
G1 X113.097 Y196.321 E12.98302
G1 X111.081 Y196.187 E13.06366
G1 X110.207 Y196.112 E13.09867
G1 X108.593 Y195.951 E13.16341
G1 X107.543 Y195.828 E13.2056
G1 X105.872 Y195.604 E13.27289
G1 X104.821 Y195.445 E13.31532
G1 X103.059 Y195.147 E13.38664
G1 X102.144 Y194.975 E13.4238
G1 X100.59 Y194.66 E13.48708
G1 X99.549 Y194.431 E13.52963
G1 X97.918 Y194.044 E13.59653
G1 X96.905 Y193.785 E13.63826
G1 X95.101 Y193.29 E13.71293
G1 X94.294 Y193.053 E13.74649
G1 X92.563 Y192.516 E13.81883
G1 X91.747 Y192.248 E13.85311
G1 X89.918 Y191.613 E13.93038
G1 X89.302 Y191.387 E13.95657
G1 X87.661 Y190.758 E14.02672
G1 X86.688 Y190.366 E14.06858
G1 X84.913 Y189.614 E14.14552
G1 X84.162 Y189.281 E14.17831
G1 X82.641 Y188.576 E14.24522
G1 X81.72 Y188.131 E14.28605
G1 X80.053 Y187.29 E14.36057
G1 X79.45 Y186.973 E14.38776
G1 X77.69 Y186.012 E14.46779
G1 X77.109 Y185.681 E14.49448
G1 X75.312 Y184.619 E14.57779
G1 X74.623 Y184.195 E14.61008
G1 X73.22 Y183.303 E14.67644
G1 X72.527 Y182.847 E14.70955
G1 X70.774 Y181.648 E14.79431
G1 X70.121 Y181.183 E14.82631
G1 X68.786 Y180.203 E14.89241
G1 X68.098 Y179.681 E14.92688
G1 X66.64 Y178.535 E15.00089
G1 X65.989 Y178.007 E15.03435
G1 X64.392 Y176.662 E15.11768
G1 X63.927 Y176.256 E15.14232
G1 X62.378 Y174.86 E15.22554
G1 X61.777 Y174.299 E15.25836
G1 X60.587 Y173.154 E15.32427
G1 X59.851 Y172.42 E15.36576
G1 X58.546 Y171.074 E15.44058
G1 X58.082 Y170.58 E15.46763
G1 X56.727 Y169.088 E15.54807
G1 X56.275 Y168.573 E15.57542
G1 X54.951 Y167.015 E15.65703
G1 X54.547 Y166.523 E15.68243
G1 X53.262 Y164.905 E15.7649
G1 X52.839 Y164.352 E15.79269
G1 X51.651 Y162.747 E15.87239
G1 X51.18 Y162.085 E15.90481
G1 X50.081 Y160.491 E15.98209
G1 X49.717 Y159.942 E16.00838
G1 X48.64 Y158.265 E16.08793
G1 X48.301 Y157.718 E16.11361
G1 X47.208 Y155.884 E16.19882
G1 X46.814 Y155.193 E16.23057
G1 X46.03 Y153.775 E16.29524
G1 X45.489 Y152.754 E16.34136
G1 X44.787 Y151.372 E16.40322
G1 X44.316 Y150.407 E16.44608
G1 X43.586 Y148.845 E16.5149
G1 X43.193 Y147.965 E16.55336
G1 X42.508 Y146.362 E16.62294
G1 X42.135 Y145.45 E16.66227
G1 X41.528 Y143.889 E16.72911
G1 X41.237 Y143.103 E16.76257
G1 X40.553 Y141.154 E16.84501
G1 X40.286 Y140.348 E16.87889
G1 X39.732 Y138.576 E16.95299
G1 X39.491 Y137.755 E16.98715
G1 X39.001 Y135.985 E17.06045
G1 X38.833 Y135.336 E17.0872
G1 X38.353 Y133.351 E17.16871
G1 X38.215 Y132.739 E17.19375
G1 X37.789 Y130.686 E17.27744
G1 X37.664 Y130.024 E17.30433
G1 X37.322 Y128.033 E17.38495
G1 X37.198 Y127.227 E17.4175
G1 X36.964 Y125.534 E17.48572
G1 X36.838 Y124.497 E17.52741
G1 X36.666 Y122.844 E17.59374
G1 X36.578 Y121.838 E17.63405
G1 X36.445 Y119.945 E17.70979
G1 X36.41 Y119.298 E17.73565
G1 X36.334 Y117.267 E17.81676
G1 X36.318 Y116.388 E17.85185
G1 X36.311 Y114.758 E17.91691
G1 X36.32 Y113.916 E17.95052
G1 X36.38 Y111.841 E18.03337
G1 X36.422 Y110.978 E18.06786
G1 X36.537 Y109.165 E18.14036
G1 X36.592 Y108.473 E18.16807
G1 X36.784 Y106.479 E18.24802
G1 X36.885 Y105.601 E18.2833
G1 X37.099 Y103.953 E18.34962
G1 X37.25 Y102.924 E18.39113
G1 X37.519 Y101.288 E18.45731
G1 X37.709 Y100.24 E18.49982
G1 X38.061 Y98.471 E18.5718
G1 X38.208 Y97.789 E18.59965
G1 X38.667 Y95.825 E18.68015
G1 X38.829 Y95.177 E18.70681
G1 X39.366 Y93.182 E18.78927
G1 X39.614 Y92.321 E18.82503
G1 X40.131 Y90.632 E18.89553
G1 X40.394 Y89.822 E18.92952
G1 X40.964 Y88.156 E18.9998
G1 X41.235 Y87.4 E19.03185
G1 X41.946 Y85.526 E19.11185
G1 X42.27 Y84.716 E19.14667
G1 X43 Y82.975 E19.22201
G1 X43.252 Y82.4 E19.24707
G1 X44.12 Y80.504 E19.3303
G1 X44.489 Y79.735 E19.36434
G1 X45.203 Y78.302 E19.42824
G1 X45.718 Y77.312 E19.47278
G1 X46.475 Y75.914 E19.53623
G1 X47.004 Y74.972 E19.57935
G1 X47.849 Y73.528 E19.64613
G1 X48.397 Y72.627 E19.68822
G1 X49.263 Y71.254 E19.75301
G1 X49.836 Y70.378 E19.79479
G1 X50.78 Y68.985 E19.86195
G1 X51.37 Y68.147 E19.90285
G1 X52.486 Y66.616 E19.97847
G1 X52.861 Y66.12 E20.00329
G1 X54.131 Y64.493 E20.08566
G1 X54.652 Y63.849 E20.11873
G1 X55.734 Y62.553 E20.18611
G1 X56.401 Y61.781 E20.22683
G1 X57.529 Y60.519 E20.29439
G1 X58.215 Y59.777 E20.33472
G1 X59.519 Y58.414 E20.41001
G0 F9000 X59.736 Y58.879
G1 F3000 X60.34 Y58.266 E20.44435
G1 X61.617 Y57.016 E20.51567
G1 X62.366 Y56.307 E20.55684
G1 X63.769 Y55.024 E20.63272
G1 X64.464 Y54.412 E20.66968
G1 X65.704 Y53.352 E20.73479
G1 X66.446 Y52.739 E20.7732
G1 X67.717 Y51.723 E20.83815
G1 X68.373 Y51.214 E20.87129
G1 X70.397 Y49.603 E20.97453
G1 X72.35 Y47.956 E21.0765
G1 X74.229 Y46.278 E21.17705
G1 X76.082 Y44.528 E21.27877
G1 X77.472 Y43.147 E21.35698
G1 X78.369 Y42.236 E21.408
G1 X79.046 Y41.605 E21.44494
G1 X79.776 Y41.035 E21.48191
G1 X80.552 Y40.53 E21.51886
G1 X81.368 Y40.094 E21.55578
G1 X82.22 Y39.73 E21.59276
G1 X83.099 Y39.441 E21.62969
G1 X84 Y39.228 E21.66665
G1 X84.916 Y39.095 E21.70359
G1 X85.708 Y39.043 E21.73527
G1 X86.33 Y39.03 E21.7601
G1 X148.445 Y39.031 E24.23924
G1 X149.148 Y39.041 E24.2673
G1 X150.073 Y39.094 E24.30428
G1 X150.989 Y39.227 E24.34122
G1 X151.891 Y39.438 E24.3782
G1 X152.77 Y39.726 E24.41512
G1 X153.622 Y40.09 E24.45209
G1 X154.439 Y40.525 E24.48904
G1 X155.216 Y41.029 E24.526
G1 X155.946 Y41.598 E24.56294
G1 X156.625 Y42.229 E24.59994
G1 X158.444 Y44.072 E24.70329
G1 X160.274 Y45.826 E24.80446
G1 X162.147 Y47.523 E24.90534
G1 X164.034 Y49.136 E25.00442
G1 X166.634 Y51.22 E25.13741
G1 X167.289 Y51.728 E25.17049
G1 X168.584 Y52.764 E25.23668
G1 X169.356 Y53.404 E25.27671
G1 X170.766 Y54.613 E25.35084
G1 X171.402 Y55.177 E25.38476
G1 X172.616 Y56.29 E25.4505
G1 X173.387 Y57.019 E25.49285
G1 X174.528 Y58.135 E25.55655
G1 X175.266 Y58.881 E25.59843
G1 X176.441 Y60.112 E25.66635
G1 X176.981 Y60.693 E25.69801
G1 X178.365 Y62.243 E25.78095
G1 X178.896 Y62.86 E25.81344
G1 X180.09 Y64.292 E25.88785
G1 X180.489 Y64.786 E25.9132
G1 X181.753 Y66.406 E25.99521
G1 X182.129 Y66.903 E26.02008
G1 X183.341 Y68.567 E26.10224
G1 X183.714 Y69.097 E26.12811
G1 X184.765 Y70.646 E26.20282
G1 X185.331 Y71.51 E26.24405
G1 X186.293 Y73.038 E26.31611
G1 X186.647 Y73.621 E26.34334
G1 X187.581 Y75.215 E26.41707
G1 X188.103 Y76.143 E26.45957
G1 X188.86 Y77.541 E26.52302
G1 X189.365 Y78.513 E26.56674
G1 X190.08 Y79.947 E26.63069
G1 X190.525 Y80.877 E26.67184
G1 X191.237 Y82.432 E26.7401
G1 X191.563 Y83.174 E26.77245
G1 X192.358 Y85.075 E26.85469
G1 X192.668 Y85.857 E26.88826
G1 X193.249 Y87.387 E26.95358
G1 X193.526 Y88.152 E26.98606
G1 X194.213 Y90.161 E27.0708
G1 X194.414 Y90.785 E27.09696
G1 X194.979 Y92.637 E27.17424
G1 X195.172 Y93.31 E27.20219
G1 X195.701 Y95.279 E27.28356
G1 X195.908 Y96.106 E27.31759
G1 X196.322 Y97.887 E27.39057
G1 X196.469 Y98.568 E27.41837
G1 X196.854 Y100.512 E27.49747
G1 X197.007 Y101.366 E27.5321
G1 X197.276 Y103.002 E27.59827
G1 X197.425 Y104.014 E27.6391
G1 X197.639 Y105.662 E27.70542
G1 X197.758 Y106.712 E27.7476
G1 X197.914 Y108.331 E27.81252
G1 X197.997 Y109.38 E27.85452
G1 X198.099 Y111.009 E27.91966
G1 X198.14 Y111.862 E27.95374
G1 X198.2 Y113.92 E28.03592
G1 X198.209 Y114.757 E28.06933
G1 X198.2 Y116.554 E28.14105
G1 X198.186 Y117.257 E28.16911
G1 X198.11 Y119.271 E28.24955
G1 X198.064 Y120.1 E28.28269
G1 X197.943 Y121.804 E28.35087
G1 X197.857 Y122.794 E28.39054
G1 X197.685 Y124.448 E28.45691
G1 X197.582 Y125.303 E28.49128
G1 X197.326 Y127.162 E28.56617
G1 X197.174 Y128.141 E28.60572
G1 X196.897 Y129.752 E28.67096
G1 X196.71 Y130.744 E28.71125
G1 X196.376 Y132.359 E28.77707
G1 X196.148 Y133.384 E28.81898
G1 X195.692 Y135.257 E28.89592
G1 X195.486 Y136.044 E28.92839
G1 X195.047 Y137.626 E28.99392
G1 X194.808 Y138.439 E29.02774
G1 X194.197 Y140.387 E29.10922
G1 X193.992 Y141.002 E29.1351
G1 X193.313 Y142.937 E29.21694
G1 X193.091 Y143.539 E29.24255
G1 X192.349 Y145.447 E29.32426
G1 X192.052 Y146.171 E29.35549
G1 X191.367 Y147.775 E29.42511
G1 X190.978 Y148.645 E29.46314
G1 X190.248 Y150.206 E29.53192
G1 X189.782 Y151.159 E29.57426
G1 X189 Y152.693 E29.64298
G1 X188.553 Y153.535 E29.68103
G1 X187.694 Y155.09 E29.75193
G1 X187.38 Y155.64 E29.77721
G1 X186.296 Y157.458 E29.86169
G1 X185.957 Y158.006 E29.88741
G1 X184.884 Y159.677 E29.96667
G1 X184.405 Y160.396 E30.00115
G1 X183.426 Y161.813 E30.06989
G1 X182.956 Y162.472 E30.1022
G1 X181.772 Y164.071 E30.18161
G1 X181.234 Y164.77 E30.21681
G1 X180.082 Y166.218 E30.29067
G1 X179.565 Y166.846 E30.32313
G1 X178.479 Y168.125 E30.3901
G1 X177.79 Y168.909 E30.43176
G1 X176.568 Y170.252 E30.50423
G1 X175.981 Y170.875 E30.53839
G1 X174.805 Y172.086 E30.60576
G1 X174.083 Y172.805 E30.64643
G1 X172.894 Y173.95 E30.71231
G1 X172.305 Y174.502 E30.74453
G1 X170.748 Y175.904 E30.82816
G1 X170.283 Y176.309 E30.85277
G1 X168.707 Y177.636 E30.935
G1 X168.063 Y178.159 E30.96811
G1 X166.746 Y179.195 E31.03499
G1 X166.079 Y179.704 E31.06848
G1 X164.595 Y180.795 E31.14199
G1 X163.947 Y181.256 E31.17373
G1 X162.215 Y182.441 E31.25749
G1 X161.523 Y182.897 E31.29057
G1 X160.12 Y183.789 E31.35692
G1 X159.289 Y184.299 E31.39584
G1 X157.8 Y185.179 E31.46487
G1 X156.9 Y185.691 E31.5062
G1 X155.472 Y186.47 E31.57112
G1 X154.556 Y186.951 E31.61241
G1 X152.899 Y187.784 E31.68643
G1 X152.306 Y188.07 E31.71271
G1 X150.466 Y188.922 E31.79364
G1 X149.736 Y189.244 E31.82548
G1 X148.122 Y189.926 E31.89542
G1 X147.164 Y190.312 E31.93664
G1 X145.676 Y190.882 E32.00024
G1 X144.733 Y191.228 E32.04033
G1 X143.096 Y191.795 E32.10947
G1 X142.294 Y192.058 E32.14316
G1 X140.39 Y192.647 E32.22271
G1 X139.761 Y192.83 E32.24885
G1 X137.783 Y193.371 E32.3307
G1 X136.977 Y193.575 E32.36388
G1 X135.171 Y194.003 E32.43796
G1 X134.31 Y194.191 E32.47313
