;FLAVOR:Marlin
;TIME:2207
;Filament used: 2.46933m
;Layer height: 0.2
;MINX:41.309
;MINY:41.844
;MINZ:0.2
;MAXX:193.691
;MAXY:193.156
;MAXZ:14.6
;Generated with Cura_SteamEngine 5.2.2
M140 S60
M105
M190 S60
M104 S210
M105
M109 S210
M82 ;absolute extrusion mode
; Ender 3 Custom Start G-code
G92 E0 ; Reset Extruder
G28 ; Home all axes
G1 Z2.0 F3000 ; Move Z Axis up little to prevent scratching of Heat Bed
G1 X0.1 Y20 Z0.3 F5000.0 ; Move to start position
G1 X0.1 Y200.0 Z0.3 F1500.0 E15 ; Draw the first line
G1 X0.4 Y200.0 Z0.3 F5000.0 ; Move to side a little
G1 X0.4 Y20 Z0.3 F1500.0 E30 ; Draw the second line
G92 E0 ; Reset Extruder
G1 Z2.0 F3000 ; Move Z Axis up little to prevent scratching of Heat Bed
G1 X5 Y20 Z0.3 F5000.0 ; Move over to prevent blob squish
G92 E0
G92 E0
G1 F2880 E-5.5
;LAYER_COUNT:73
;LAYER:0
M107
G0 F9000 X64.15 Y63.64 Z0.2
;TYPE:SKIRT
G1 F2880 E0
G1 F3000 X64.639 Y63.166 E0.02718
G1 X65.984 Y61.899 E0.10093
G1 X66.52 Y61.413 E0.12981
G1 X67.903 Y60.196 E0.20333
G1 X68.297 Y59.861 E0.22398
G1 X69.882 Y58.556 E0.30592
G1 X70.419 Y58.131 E0.33325
G1 X71.767 Y57.096 E0.40108
G1 X72.468 Y56.577 E0.4359
G1 X73.984 Y55.494 E0.51026
G1 X74.543 Y55.11 E0.53732
G1 X75.958 Y54.167 E0.60519
G1 X76.676 Y53.705 E0.63927
G1 X78.105 Y52.82 E0.70636
G1 X78.716 Y52.454 E0.73478
G1 X80.482 Y51.441 E0.81604
G1 X80.896 Y51.212 E0.83492
G1 X82.795 Y50.206 E0.92069
G1 X83.2 Y50.001 E0.93881
G1 X85.069 Y49.091 E1.02178
G1 X85.655 Y48.819 E1.04757
G1 X87.197 Y48.13 E1.11497
G1 X87.848 Y47.851 E1.14324
G1 X89.74 Y47.081 E1.22477
G1 X90.416 Y46.82 E1.25369
G1 X92.134 Y46.19 E1.32673
G1 X92.633 Y46.016 E1.34782
G1 X94.399 Y45.431 E1.42207
G1 X95.047 Y45.228 E1.44917
G1 X97.055 Y44.638 E1.5327
G1 X97.651 Y44.476 E1.55735
G1 X99.546 Y43.989 E1.63545
G1 X100.068 Y43.865 E1.65686
G1 X101.925 Y43.454 E1.73277
G1 X102.641 Y43.308 E1.76194
G1 X104.557 Y42.951 E1.83972
G1 X105.05 Y42.868 E1.85968
G1 X107.033 Y42.566 E1.93974
G1 X107.555 Y42.496 E1.96076
G1 X109.584 Y42.256 E2.0423
G1 X110.281 Y42.187 E2.07026
G1 X111.949 Y42.047 E2.13706
G1 X112.843 Y41.987 E2.17283
G1 X114.46 Y41.905 E2.23745
G1 X115.183 Y41.879 E2.26632
G1 X117.258 Y41.844 E2.34915
G1 X117.742 Y41.844 E2.36847
G1 X119.818 Y41.879 E2.45134
G1 X120.54 Y41.905 E2.48017
G1 X122.157 Y41.987 E2.5448
G1 X123.05 Y42.047 E2.58052
G1 X124.719 Y42.187 E2.64736
G1 X125.601 Y42.277 E2.68275
G1 X127.445 Y42.496 E2.75686
G1 X127.967 Y42.566 E2.77789
G1 X129.78 Y42.841 E2.85107
G1 X130.639 Y42.986 E2.88584
G1 X132.358 Y43.307 E2.95564
G1 X133.057 Y43.449 E2.98411
G1 X134.769 Y43.828 E3.05409
G1 X135.669 Y44.042 E3.09101
G1 X137.515 Y44.52 E3.16712
G1 X137.945 Y44.638 E3.18492
G1 X139.953 Y45.228 E3.26845
G1 X140.601 Y45.431 E3.29555
G1 X142.195 Y45.958 E3.36256
G1 X143.04 Y46.253 E3.39828
G1 X144.583 Y46.82 E3.46389
G1 X145.259 Y47.081 E3.49281
G1 X147.152 Y47.851 E3.57438
G1 X147.806 Y48.132 E3.60279
G1 X149.508 Y48.894 E3.67722
G1 X150.094 Y49.169 E3.70305
G1 X151.646 Y49.925 E3.77195
G1 X152.204 Y50.206 E3.79689
G1 X154.083 Y51.201 E3.88175
G1 X154.499 Y51.43 E3.9007
G1 X156.279 Y52.451 E3.9826
G1 X156.895 Y52.82 E4.01126
G1 X158.478 Y53.802 E4.08561
G1 X159.046 Y54.169 E4.1126
G1 X160.609 Y55.213 E4.18762
G1 X161.17 Y55.602 E4.21487
G1 X162.53 Y56.575 E4.28161
G1 X163.085 Y56.985 E4.30915
G1 X164.728 Y58.246 E4.39182
G1 X165.264 Y58.674 E4.41919
G1 X166.567 Y59.747 E4.48656
G1 X167.099 Y60.198 E4.5144
G1 X168.482 Y61.416 E4.58795
G1 X169.153 Y62.028 E4.6242
G1 X170.355 Y63.16 E4.6901
G1 X170.98 Y63.771 E4.72498
G1 X172.185 Y64.985 E4.79325
G1 X172.773 Y65.597 E4.82713
G1 X174.084 Y67.013 E4.90415
G1 X174.406 Y67.373 E4.92342
G1 X175.716 Y68.883 E5.00321
G1 X176.178 Y69.436 E5.03197
G1 X177.237 Y70.743 E5.09911
G1 X177.688 Y71.317 E5.12824
G1 X178.895 Y72.916 E5.2082
G1 X179.291 Y73.461 E5.23509
G1 X180.293 Y74.884 E5.30456
G1 X180.79 Y75.617 E5.3399
G1 X181.77 Y77.115 E5.41135
G1 X182.169 Y77.749 E5.44125
G1 X183.03 Y79.165 E5.50739
G1 X183.385 Y79.769 E5.53535
G1 X184.399 Y81.57 E5.61784
G1 X184.741 Y82.205 E5.64663
G1 X185.485 Y83.639 E5.71111
G1 X185.884 Y84.441 E5.74686
G1 X186.627 Y85.998 E5.81572
G1 X186.963 Y86.731 E5.8479
G1 X187.654 Y88.311 E5.91673
G1 X187.923 Y88.953 E5.94451
G1 X188.681 Y90.862 E6.02649
G1 X188.9 Y91.445 E6.05135
G1 X189.503 Y93.123 E6.12251
G1 X189.78 Y93.938 E6.15687
G1 X190.275 Y95.478 E6.22143
G1 X190.543 Y96.359 E6.25818
G1 X190.997 Y97.951 E6.32426
G1 X191.188 Y98.664 E6.35372
G1 X191.675 Y100.622 E6.43425
G1 X191.841 Y101.35 E6.46405
G1 X192.177 Y102.926 E6.52836
G1 X192.318 Y103.634 E6.55718
G1 X192.675 Y105.636 E6.63834
G1 X192.787 Y106.337 E6.66667
G1 X193.024 Y107.976 E6.73277
G1 X193.135 Y108.853 E6.76805
G1 X193.342 Y110.754 E6.84437
G1 X193.4 Y111.398 E6.87018
G1 X193.543 Y113.283 E6.94563
G1 X193.581 Y113.957 E6.97257
G1 X193.661 Y115.872 E7.04907
G1 X193.676 Y116.533 E7.07546
G1 X193.691 Y118.181 E7.14124
G1 X193.686 Y118.923 E7.17086
G1 X193.644 Y120.697 E7.24168
G1 X193.606 Y121.606 E7.27799
G1 X193.479 Y123.706 E7.36196
G1 X193.284 Y125.891 E7.44951
G1 X193.194 Y126.719 E7.48276
G1 X192.954 Y128.609 E7.5588
G1 X192.852 Y129.305 E7.58687
G1 X192.593 Y130.921 E7.65219
G1 X192.476 Y131.589 E7.67926
G1 X192.072 Y133.659 E7.76344
G1 X191.927 Y134.334 E7.79099
G1 X191.52 Y136.094 E7.86309
G1 X191.384 Y136.645 E7.88574
G1 X190.866 Y138.591 E7.96612
G1 X190.672 Y139.268 E7.99423
G1 X190.128 Y141.064 E8.06912
G1 X189.971 Y141.552 E8.08958
G1 X189.313 Y143.49 E8.17127
G1 X189.08 Y144.139 E8.19879
G1 X188.494 Y145.694 E8.26512
G1 X188.224 Y146.376 E8.29439
G1 X187.44 Y148.26 E8.37584
G1 X187.164 Y148.889 E8.40325
G1 X186.258 Y150.858 E8.48976
G1 X185.245 Y152.903 E8.58084
G1 X184.95 Y153.469 E8.60632
G1 X184.127 Y154.993 E8.67545
G1 X183.791 Y155.594 E8.70293
G1 X182.77 Y157.341 E8.78369
G1 X182.414 Y157.924 E8.81095
G1 X181.515 Y159.353 E8.87834
G1 X181.029 Y160.097 E8.91381
G1 X180.077 Y161.501 E8.98151
G1 X179.669 Y162.082 E9.00985
G1 X178.488 Y163.703 E9.08989
G1 X178.057 Y164.271 E9.11835
G1 X176.933 Y165.708 E9.19117
G1 X176.606 Y166.114 E9.21197
G1 X175.272 Y167.709 E9.29496
G1 X174.804 Y168.248 E9.32345
G1 X173.612 Y169.577 E9.39471
G1 X173.1 Y170.129 E9.42476
G1 X171.944 Y171.337 E9.49149
G1 X171.315 Y171.969 E9.52708
G1 X169.998 Y173.254 E9.60052
G1 X169.469 Y173.751 E9.62949
G1 X168.261 Y174.853 E9.69475
G1 X166.4 Y176.599 E9.7966
G1 X164.612 Y178.376 E9.89721
G1 X162.878 Y180.197 E9.99757
G1 X161.224 Y182.039 E10.09638
G1 X159.561 Y183.997 E10.19891
G1 X158.012 Y185.931 E10.2978
G1 X156.616 Y187.771 E10.38999
G1 X155.993 Y188.612 E10.43176
G1 X155.398 Y189.348 E10.46953
G1 X154.744 Y190.031 E10.50728
G1 X154.033 Y190.657 E10.54508
G1 X153.273 Y191.22 E10.58283
G1 X152.468 Y191.717 E10.62059
G1 X151.623 Y192.145 E10.6584
G1 X150.746 Y192.499 E10.69615
G1 X149.842 Y192.778 E10.73391
G1 X148.917 Y192.98 E10.77169
G1 X147.979 Y193.103 E10.80945
G1 X147.305 Y193.143 E10.8364
G1 X146.67 Y193.156 E10.86175
G1 X125.547 Y193.155 E11.70482
G1 X124.847 Y193.145 E11.73276
G1 X124.351 Y193.127 E11.75257
G1 X121.293 Y192.948 E11.87483
G1 X118.828 Y192.877 E11.97325
G1 X116.316 Y192.877 E12.07351
G1 X113.798 Y192.947 E12.17405
G1 X110.632 Y193.129 E12.30062
G1 X109.985 Y193.152 E12.32646
G1 X88.547 Y193.155 E13.18209
G1 X87.846 Y193.145 E13.21008
G1 X86.901 Y193.091 E13.24785
G1 X85.964 Y192.958 E13.28563
G1 X85.042 Y192.747 E13.32338
G1 X84.141 Y192.458 E13.36114
G1 X83.267 Y192.094 E13.39893
G1 X82.427 Y191.658 E13.4367
G1 X81.627 Y191.152 E13.47448
G1 X80.873 Y190.581 E13.51223
G1 X80.17 Y189.948 E13.54999
G1 X79.522 Y189.258 E13.58777
G1 X79.013 Y188.622 E13.62028
G1 X77.559 Y186.663 E13.71765
G1 X75.998 Y184.675 E13.81854
G1 X74.391 Y182.745 E13.91877
G1 X72.753 Y180.884 E14.01772
G1 X71.015 Y179.019 E14.11947
G1 X69.269 Y177.252 E14.21862
G1 X66.709 Y174.824 E14.35944
G1 X65.389 Y173.618 E14.4308
G1 X64.862 Y173.119 E14.45977
G1 X63.685 Y171.969 E14.52544
G1 X63.059 Y171.339 E14.56089
G1 X61.903 Y170.132 E14.6276
G1 X61.388 Y169.577 E14.65781
G1 X60.195 Y168.247 E14.72912
G1 X59.726 Y167.707 E14.75767
G1 X58.403 Y166.125 E14.83998
G1 X57.965 Y165.58 E14.86789
G1 X56.818 Y164.11 E14.94231
G1 X56.502 Y163.69 E14.96328
G1 X55.428 Y162.217 E15.03604
G1 X54.926 Y161.504 E15.07084
G1 X53.863 Y159.935 E15.14649
G1 X53.485 Y159.353 E15.17418
G1 X52.586 Y157.924 E15.24157
G1 X52.23 Y157.341 E15.26883
G1 X51.209 Y155.594 E15.34959
G1 X50.877 Y155.001 E15.37672
G1 X49.888 Y153.161 E15.46009
G1 X48.901 Y151.189 E15.54811
G1 X48.55 Y150.452 E15.58069
G1 X47.742 Y148.678 E15.65849
G1 X47.488 Y148.09 E15.68405
G1 X46.84 Y146.532 E15.7514
G1 X46.503 Y145.688 E15.78767
G1 X45.918 Y144.133 E15.85398
G1 X45.687 Y143.49 E15.88125
G1 X45.027 Y141.546 E15.96319
G1 X44.87 Y141.057 E15.98369
G1 X44.273 Y139.084 E16.06596
G1 X44.131 Y138.583 E16.08675
G1 X43.617 Y136.648 E16.16665
G1 X43.481 Y136.098 E16.18927
G1 X43.032 Y134.149 E16.26909
G1 X42.891 Y133.477 E16.2965
G1 X42.523 Y131.587 E16.37335
G1 X42.407 Y130.921 E16.40033
G1 X42.148 Y129.305 E16.46565
G1 X42.019 Y128.409 E16.50178
G1 X41.784 Y126.532 E16.57728
G1 X41.716 Y125.891 E16.60301
G1 X41.521 Y123.705 E16.6906
G1 X41.394 Y121.608 E16.77445
G1 X41.356 Y120.698 E16.8108
G1 X41.314 Y118.923 E16.88167
G1 X41.309 Y118.181 E16.91128
G1 X41.324 Y116.534 E16.97702
G1 X41.339 Y115.873 E17.00341
G1 X41.428 Y113.774 E17.08726
G1 X41.457 Y113.281 E17.10697
G1 X41.615 Y111.218 E17.18955
G1 X41.677 Y110.566 E17.21569
G1 X41.887 Y108.664 E17.29207
G1 X41.976 Y107.976 E17.31975
G1 X42.241 Y106.154 E17.39324
G1 X42.325 Y105.634 E17.41426
G1 X42.681 Y103.639 E17.49515
G1 X42.823 Y102.926 E17.52416
G1 X43.159 Y101.35 E17.58848
G1 X43.372 Y100.421 E17.62652
G1 X43.813 Y98.659 E17.69901
G1 X44.003 Y97.952 E17.72823
G1 X44.457 Y96.36 E17.7943
G1 X44.671 Y95.651 E17.82386
G1 X45.279 Y93.761 E17.9031
G1 X45.433 Y93.308 E17.9222
G1 X46.168 Y91.263 E18.00893
G1 X46.385 Y90.694 E18.03324
G1 X47.004 Y89.133 E18.10026
G1 X47.347 Y88.308 E18.13592
G1 X48.038 Y86.729 E18.20471
G1 X48.373 Y85.998 E18.23681
G1 X49.116 Y84.441 E18.30566
G1 X49.518 Y83.634 E18.34165
G1 X50.263 Y82.2 E18.40614
G1 X50.69 Y81.409 E18.44202
G1 X51.623 Y79.753 E18.51788
G1 X51.97 Y79.165 E18.54513
G1 X52.927 Y77.594 E18.61855
G1 X53.332 Y76.955 E18.64875
G1 X54.212 Y75.613 E18.7128
G1 X54.707 Y74.883 E18.748
G1 X55.71 Y73.459 E18.81752
G1 X56.217 Y72.765 E18.85182
G1 X57.312 Y71.317 E18.92428
G1 X57.762 Y70.744 E18.95336
G1 X58.82 Y69.438 E19.02044
G1 X59.277 Y68.891 E19.04889
G1 X60.483 Y67.499 E19.1224
G1 X60.914 Y67.015 E19.14827
G1 X62.364 Y65.45 E19.23342
G1 X62.814 Y64.984 E19.25927
G1 X64.15 Y63.64 E19.33491
G0 F9000 X64.485 Y63.983
G1 F3000 X64.841 Y63.636 E19.35475
G1 X66.307 Y62.254 E19.43516
G1 X66.837 Y61.773 E19.46373
G1 X68.069 Y60.687 E19.52928
G1 X68.738 Y60.118 E19.56433
G1 X70.04 Y59.046 E19.63164
G1 X70.567 Y58.625 E19.65856
G1 X72.06 Y57.477 E19.73373
G1 X72.747 Y56.967 E19.76788
G1 X74.256 Y55.889 E19.8419
G1 X74.809 Y55.509 E19.86868
G1 X76.224 Y54.566 E19.93655
G1 X76.772 Y54.212 E19.96259
G1 X78.358 Y53.228 E20.03708
G1 X79.123 Y52.772 E20.07263
G1 X80.714 Y51.861 E20.1458
G1 X81.128 Y51.632 E20.16468
G1 X83.012 Y50.634 E20.24977
G1 X83.566 Y50.355 E20.27453
G1 X85.119 Y49.599 E20.34347
G1 X85.686 Y49.333 E20.36847
G1 X87.561 Y48.495 E20.45044
G1 X88.202 Y48.223 E20.47823
G1 X89.758 Y47.59 E20.54527
G1 X90.582 Y47.271 E20.58054
G1 X92.292 Y46.644 E20.65323
G1 X92.956 Y46.414 E20.68128
G1 X94.735 Y45.827 E20.75605
G1 X95.189 Y45.686 E20.77502
G1 X96.996 Y45.154 E20.8502
G1 X97.612 Y44.983 E20.87572
G1 X99.657 Y44.456 E20.96001
G1 X100.34 Y44.295 E20.98801
G1 X101.885 Y43.953 E21.05117
G1 X102.729 Y43.779 E21.08556
G1 X104.447 Y43.458 E21.15532
G1 X105.129 Y43.342 E21.18293
G1 X107.097 Y43.042 E21.26239
G1 X107.783 Y42.951 E21.29001
G1 X109.455 Y42.753 E21.35721
G1 X110.134 Y42.683 E21.38445
G1 X112.172 Y42.512 E21.46608
G1 X112.867 Y42.467 E21.49387
G1 X114.654 Y42.377 E21.56529
G1 X115.395 Y42.353 E21.59488
G1 X117.08 Y42.325 E21.66214
G1 X117.92 Y42.325 E21.69566
G1 X119.606 Y42.353 E21.76297
G1 X120.516 Y42.385 E21.79931
G1 X122.304 Y42.477 E21.87077
G1 X123.01 Y42.526 E21.89901
G1 X124.869 Y42.683 E21.97347
G1 X125.545 Y42.753 E22.0006
G1 X127.217 Y42.951 E22.0678
G1 X127.903 Y43.042 E22.09542
G1 X129.874 Y43.342 E22.17499
G1 X130.551 Y43.458 E22.2024
G1 X132.27 Y43.779 E22.2722
G1 X133.119 Y43.953 E22.30679
G1 X134.665 Y44.296 E22.36999
G1 X135.549 Y44.506 E22.40626
G1 X137.235 Y44.942 E22.47576
G1 X138.004 Y45.154 E22.5076
G1 X139.811 Y45.686 E22.58278
G1 X140.265 Y45.827 E22.60176
G1 X142.215 Y46.472 E22.68373
G1 X142.713 Y46.646 E22.70479
G1 X144.417 Y47.271 E22.77723
G1 X145.238 Y47.589 E22.81237
G1 X146.795 Y48.222 E22.87945
G1 X147.439 Y48.495 E22.90737
G1 X149.305 Y49.329 E22.98894
G1 X149.884 Y49.601 E23.01448
G1 X151.582 Y50.429 E23.08987
G1 X152.166 Y50.727 E23.11604
G1 X153.852 Y51.622 E23.19223
G1 X154.433 Y51.944 E23.21874
G1 X155.883 Y52.776 E23.28546
G1 X156.642 Y53.228 E23.32072
G1 X158.071 Y54.113 E23.38781
G1 X158.78 Y54.568 E23.42143
G1 X160.337 Y55.608 E23.49616
G1 X160.744 Y55.889 E23.5159
G1 X162.4 Y57.074 E23.59718
G1 X162.799 Y57.37 E23.617
G1 X164.429 Y58.622 E23.69904
G1 X164.959 Y59.045 E23.7261
G1 X166.262 Y60.118 E23.79347
G1 X166.934 Y60.69 E23.82869
G1 X168.3 Y61.897 E23.90145
G1 X168.824 Y62.377 E23.92981
G1 X170.026 Y63.509 E23.99571
G1 X170.639 Y64.109 E24.02994
G1 X171.844 Y65.323 E24.09821
G1 X172.421 Y65.924 E24.13147
G1 X173.726 Y67.333 E24.20812
G1 X174.155 Y67.814 E24.23384
G1 X175.237 Y69.061 E24.29974
G1 X175.805 Y69.738 E24.33501
G1 X176.98 Y71.19 E24.40956
G1 X177.31 Y71.612 E24.43094
G1 X178.507 Y73.198 E24.51024
G1 X178.898 Y73.737 E24.53682
G1 X180.006 Y75.313 E24.61371
G1 X180.389 Y75.88 E24.64102
G1 X181.269 Y77.223 E24.70511
G1 X181.759 Y77.998 E24.7417
G1 X182.62 Y79.414 E24.80785
G1 X183.059 Y80.165 E24.84257
G1 X183.977 Y81.798 E24.91733
G1 X184.315 Y82.426 E24.9458
G1 X185.059 Y83.86 E25.01028
G1 X185.451 Y84.648 E25.04541
G1 X186.194 Y86.205 E25.11426
G1 X186.523 Y86.924 E25.14582
G1 X187.287 Y88.674 E25.22203
G1 X187.548 Y89.305 E25.24929
G1 X188.168 Y90.866 E25.31632
G1 X188.387 Y91.442 E25.34092
G1 X189.115 Y93.467 E25.4268
G1 X189.323 Y94.085 E25.45283
G1 X189.818 Y95.625 E25.51739
G1 X190.081 Y96.491 E25.55351
G1 X190.586 Y98.268 E25.62725
G1 X190.767 Y98.953 E25.65552
G1 X191.163 Y100.544 E25.72096
G1 X191.334 Y101.281 E25.75116
G1 X191.74 Y103.185 E25.82886
G1 X191.884 Y103.922 E25.85883
G1 X192.172 Y105.538 E25.92435
G1 X192.312 Y106.406 E25.95944
G1 X192.549 Y108.045 E26.02553
G1 X192.658 Y108.905 E26.06013
G1 X192.846 Y110.619 E26.12895
G1 X192.922 Y111.434 E26.16162
G1 X193.051 Y113.12 E26.22911
G1 X193.093 Y113.806 E26.25654
G1 X193.181 Y115.884 E26.33955
G1 X193.196 Y116.537 E26.36562
G1 X193.211 Y118.185 E26.4314
G1 X193.206 Y118.919 E26.4607
G1 X193.164 Y120.685 E26.5312
G1 X193.136 Y121.4 E26.55976
G1 X193.001 Y123.663 E26.65024
G1 X192.806 Y125.848 E26.7378
G1 X192.718 Y126.659 E26.77036
G1 X192.505 Y128.348 E26.8383
G1 X192.403 Y129.066 E26.86725
G1 X192.119 Y130.845 E26.93915
G1 X191.969 Y131.689 E26.97336
G1 X191.638 Y133.384 E27.04229
G1 X191.459 Y134.226 E27.07665
G1 X191.054 Y135.979 E27.14846
G1 X190.918 Y136.53 E27.17111
G1 X190.452 Y138.285 E27.24358
G1 X190.212 Y139.13 E27.27864
G1 X189.671 Y140.917 E27.35316
G1 X189.46 Y141.569 E27.38051
G1 X188.916 Y143.171 E27.44804
G1 X188.695 Y143.793 E27.47439
G1 X187.972 Y145.711 E27.55619
G1 X187.717 Y146.348 E27.58358
G1 X187 Y148.069 E27.65799
G1 X186.728 Y148.688 E27.68498
G1 X185.822 Y150.657 E27.77148
G1 X184.819 Y152.682 E27.86168
G1 X184.615 Y153.076 E27.87939
G1 X183.619 Y154.921 E27.96307
G1 X183.373 Y155.359 E27.98312
G1 X182.457 Y156.929 E28.05567
G1 X182.093 Y157.531 E28.08374
G1 X181.007 Y159.257 E28.16513
G1 X180.632 Y159.827 E28.19237
G1 X179.68 Y161.231 E28.26007
G1 X179.184 Y161.935 E28.29444
G1 X178.213 Y163.268 E28.36026
G1 X177.679 Y163.975 E28.39563
G1 X176.559 Y165.407 E28.46819
G1 X176.232 Y165.813 E28.48899
G1 X174.909 Y167.395 E28.5713
