;FLAVOR:Marlin
;TIME:1428
;Filament used: 0.897975m
;Layer height: 0.28
;MINX:100.814
;MINY:98.554
;MINZ:0.28
;MAXX:136.841
;MAXY:135.447
;MAXZ:40.88
;Generated with Cura_SteamEngine 5.2.2
M140 S60
M105
M190 S60
M104 S210
M105
M109 S210
M82 ;absolute extrusion mode
; Ender 3 Custom Start G-code
G92 E0 ; Reset Extruder
G28 ; Home all axes
G1 Z2.0 F3000 ; Move Z Axis up little to prevent scratching of Heat Bed
G1 X0.1 Y20 Z0.3 F5000.0 ; Move to start position
G1 X0.1 Y200.0 Z0.3 F1500.0 E15 ; Draw the first line
G1 X0.4 Y200.0 Z0.3 F5000.0 ; Move to side a little
G1 X0.4 Y20 Z0.3 F1500.0 E30 ; Draw the second line
G92 E0 ; Reset Extruder
G1 Z2.0 F3000 ; Move Z Axis up little to prevent scratching of Heat Bed
G1 X5 Y20 Z0.3 F5000.0 ; Move over to prevent blob squish
G92 E0
G92 E0
G1 F2880 E-5.5
;LAYER_COUNT:146
;LAYER:0
M107
G0 F6000 X106.516 Y103.876 Z0.28
;TYPE:SKIRT
G1 F2880 E0
G1 F600 X106.967 Y103.45 E0.03467
G1 X107.444 Y103.028 E0.07025
G1 X108.024 Y102.534 E0.11282
G1 X108.77 Y101.951 E0.16573
G1 X109.485 Y101.479 E0.2136
G1 X110.248 Y101.017 E0.26344
G1 X110.791 Y100.705 E0.29843
G1 X111.634 Y100.275 E0.35131
G1 X112.172 Y100.045 E0.384
G1 X112.803 Y99.795 E0.42193
G1 X113.586 Y99.506 E0.46857
G1 X114.488 Y99.22 E0.52144
G1 X115.118 Y99.069 E0.55764
G1 X115.935 Y98.901 E0.60425
G1 X116.662 Y98.768 E0.64554
G1 X117.6 Y98.637 E0.69846
G1 X118.32 Y98.591 E0.73878
G1 X119.355 Y98.56 E0.79664
G1 X119.851 Y98.554 E0.82435
G1 X120.796 Y98.582 E0.87718
G1 X121.737 Y98.691 E0.93011
G1 X122.664 Y98.878 E0.98295
G1 X123.464 Y99.107 E1.02945
G1 X124.283 Y99.388 E1.07783
G1 X124.545 Y99.488 E1.0935
G1 X125.222 Y99.772 E1.13453
G1 X125.878 Y100.073 E1.17486
G1 X126.449 Y100.355 E1.21044
G1 X126.736 Y100.507 E1.22859
G1 X127.261 Y100.804 E1.26229
G1 X127.574 Y100.992 E1.28269
G1 X128.217 Y101.409 E1.32552
G1 X128.909 Y101.892 E1.37267
G1 X129.772 Y102.558 E1.43358
G1 X130.374 Y103.072 E1.47781
G1 X131.021 Y103.67 E1.52704
G1 X131.326 Y103.975 E1.55114
G1 X131.773 Y104.45 E1.58759
G1 X132.08 Y104.795 E1.61339
G1 X132.644 Y105.481 E1.66302
G1 X133.086 Y106.065 E1.70394
G1 X133.519 Y106.679 E1.74592
G1 X133.897 Y107.255 E1.78442
G1 X134.334 Y107.977 E1.83158
G1 X134.744 Y108.755 E1.88072
G1 X135.145 Y109.596 E1.93278
G1 X135.505 Y110.438 E1.98395
G1 X135.676 Y110.888 E2.01085
G1 X135.902 Y111.544 E2.04962
G1 X136.011 Y111.895 E2.07015
G1 X136.181 Y112.501 E2.10532
G1 X136.341 Y113.141 E2.14218
G1 X136.497 Y113.866 E2.18362
G1 X136.63 Y114.692 E2.23037
G1 X136.73 Y115.484 E2.27498
G1 X136.805 Y116.35 E2.32355
G1 X136.828 Y116.829 E2.35034
G1 X136.841 Y117.464 E2.38583
G1 X136.837 Y117.92 E2.41131
G1 X136.802 Y118.71 E2.4555
G1 X136.758 Y119.263 E2.4865
G1 X136.699 Y119.821 E2.51785
G1 X136.643 Y120.251 E2.54208
G1 X136.525 Y120.972 E2.5829
G1 X136.413 Y121.54 E2.61525
G1 X136.139 Y122.635 E2.67832
G1 X135.84 Y123.617 E2.73568
G1 X135.459 Y124.677 E2.79862
G1 X135.262 Y125.148 E2.82715
G1 X134.927 Y125.874 E2.87183
G1 X134.565 Y126.591 E2.91671
G1 X134.202 Y127.253 E2.95889
G1 X134.058 Y127.496 E2.97468
G1 X133.579 Y128.237 E3.02398
G1 X133.021 Y129.029 E3.07812
G1 X132.463 Y129.755 E3.12928
G1 X131.901 Y130.408 E3.17742
G1 X131.683 Y130.645 E3.19541
G1 X131.014 Y131.314 E3.24828
G1 X130.29 Y131.924 E3.30118
G1 X129.426 Y132.529 E3.36012
G1 X128.999 Y132.799 E3.38835
G1 X127.861 Y133.429 E3.46103
G1 X127.28 Y133.708 E3.49704
G1 X126.756 Y133.946 E3.5292
G1 X125.671 Y134.358 E3.59405
G1 X124.479 Y134.742 E3.66403
G1 X123.567 Y134.994 E3.7169
G1 X122.685 Y135.161 E3.76705
G1 X121.881 Y135.28 E3.81247
G1 X121.142 Y135.372 E3.85408
G1 X120.198 Y135.443 E3.90698
G1 X119.598 Y135.447 E3.9405
G1 X118.978 Y135.434 E3.97516
G1 X118.114 Y135.396 E4.02348
G1 X117.171 Y135.309 E4.0764
G1 X116.499 Y135.198 E4.11445
G1 X116.113 Y135.122 E4.13644
G1 X115.155 Y134.913 E4.19123
G1 X114.24 Y134.67 E4.24413
G1 X113.501 Y134.411 E4.28788
G1 X112.944 Y134.192 E4.32132
G1 X112.28 Y133.917 E4.36148
G1 X111.422 Y133.518 E4.41436
G1 X110.601 Y133.048 E4.46722
G1 X109.843 Y132.571 E4.51726
G1 X109.08 Y132.046 E4.56901
G1 X107.435 Y130.81 E4.68398
G1 X106.888 Y130.372 E4.72314
G1 X106.394 Y129.95 E4.75944
G1 X105.577 Y129.178 E4.82225
G1 X105.332 Y128.922 E4.84205
G1 X104.834 Y128.364 E4.88384
G1 X104.619 Y128.107 E4.90257
G1 X104.064 Y127.386 E4.95341
G1 X103.678 Y126.84 E4.99077
G1 X103.039 Y125.826 E5.05774
G1 X102.81 Y125.415 E5.08403
G1 X102.295 Y124.366 E5.14933
G1 X102.036 Y123.76 E5.18615
G1 X101.671 Y122.781 E5.24453
G1 X101.506 Y122.267 E5.2747
G1 X101.181 Y121.007 E5.34741
G1 X101.082 Y120.504 E5.37605
G1 X100.927 Y119.458 E5.43514
G1 X100.878 Y118.969 E5.4626
G1 X100.823 Y118.011 E5.51622
G1 X100.814 Y117.377 E5.55165
G1 X100.862 Y116.175 E5.61887
G1 X100.937 Y115.46 E5.65904
G1 X100.983 Y115.115 E5.67848
G1 X101.125 Y114.289 E5.72532
G1 X101.218 Y113.847 E5.75055
G1 X101.481 Y112.833 E5.80909
G1 X101.625 Y112.369 E5.83624
G1 X101.842 Y111.739 E5.87347
G1 X102.15 Y110.961 E5.92022
G1 X102.463 Y110.242 E5.96404
G1 X103.052 Y108.93 E6.0444
G1 X103.469 Y108.097 E6.09645
G1 X103.965 Y107.2 E6.15373
G1 X104.457 Y106.392 E6.20659
G1 X104.993 Y105.657 E6.25742
G1 X105.42 Y105.119 E6.2958
G1 X105.875 Y104.573 E6.33551
G1 X106.516 Y103.876 E6.38842
G0 F6000 X106.869 Y104.201
G1 F600 X107.287 Y103.808 E6.42048
G1 X107.755 Y103.393 E6.45543
G1 X108.335 Y102.899 E6.498
G1 X109.065 Y102.33 E6.54972
G1 X109.734 Y101.89 E6.59446
G1 X110.497 Y101.428 E6.6443
G1 X111.027 Y101.123 E6.67847
G1 X111.852 Y100.703 E6.7302
G1 X112.348 Y100.492 E6.76032
G1 X112.979 Y100.242 E6.79824
G1 X113.75 Y99.957 E6.84417
G1 X114.633 Y99.678 E6.89592
G1 X115.216 Y99.538 E6.92942
G1 X115.75 Y99.426 E6.95991
G1 X116.749 Y99.24 E7.01669
G1 X117.666 Y99.113 E7.06842
G1 X118.335 Y99.07 E7.10587
G1 X119.147 Y99.044 E7.15127
G1 X119.856 Y99.034 E7.19089
G1 X120.782 Y99.063 E7.24266
G1 X121.701 Y99.171 E7.29436
G1 X122.608 Y99.359 E7.34612
G1 X123.315 Y99.563 E7.38724
G1 X123.618 Y99.662 E7.40505
G1 X124.374 Y99.937 E7.45
G1 X125.022 Y100.209 E7.48927
G1 X125.678 Y100.51 E7.5296
G1 X126.224 Y100.78 E7.56363
G1 X126.511 Y100.932 E7.58178
G1 X127.014 Y101.215 E7.61403
G1 X127.327 Y101.403 E7.63443
G1 X127.943 Y101.802 E7.67544
G1 X128.635 Y102.285 E7.7226
G1 X129.46 Y102.923 E7.78087
G1 X130.062 Y103.437 E7.8251
G1 X130.681 Y104.01 E7.87223
G1 X130.986 Y104.315 E7.89634
G1 X131.414 Y104.769 E7.9312
G1 X131.721 Y105.114 E7.957
G1 X132.261 Y105.771 E8.00452
G1 X132.703 Y106.355 E8.04545
G1 X133.117 Y106.942 E8.08559
G1 X133.495 Y107.518 E8.12408
G1 X133.919 Y108.216 E8.16972
G1 X134.31 Y108.961 E8.21673
G1 X134.711 Y109.802 E8.26879
G1 X135.056 Y110.608 E8.31778
G1 X135.227 Y111.058 E8.34468
G1 X135.444 Y111.687 E8.38186
G1 X135.553 Y112.038 E8.4024
G1 X135.715 Y112.617 E8.43599
G1 X135.875 Y113.257 E8.47285
G1 X136.024 Y113.951 E8.51251
G1 X136.154 Y114.752 E8.55786
G1 X136.254 Y115.544 E8.60246
G1 X136.326 Y116.373 E8.64896
G1 X136.349 Y116.852 E8.67576
G1 X136.361 Y117.46 E8.70974
G1 X136.357 Y117.916 E8.73522
G1 X136.323 Y118.672 E8.7775
G1 X136.279 Y119.225 E8.8085
G1 X136.223 Y119.759 E8.8385
G1 X136.167 Y120.189 E8.86273
G1 X136.054 Y120.879 E8.9018
G1 X135.942 Y121.447 E8.93415
G1 X135.68 Y122.495 E8.99451
G1 X135.381 Y123.477 E9.05187
G1 X135.016 Y124.491 E9.11209
G1 X134.819 Y124.962 E9.14062
G1 X134.499 Y125.657 E9.18337
G1 X134.137 Y126.374 E9.22825
G1 X133.789 Y127.008 E9.26866
G1 X133.645 Y127.251 E9.28444
G1 X133.186 Y127.96 E9.33164
G1 X132.628 Y128.752 E9.38577
G1 X132.095 Y129.447 E9.43471
G1 X131.548 Y130.083 E9.48159
G1 X131.33 Y130.32 E9.49958
G1 X130.674 Y130.974 E9.55134
G1 X129.965 Y131.569 E9.60306
G1 X129.169 Y132.124 E9.65728
G1 X128.742 Y132.394 E9.68551
G1 X127.653 Y132.997 E9.75507
G1 X127.072 Y133.276 E9.79108
G1 X126.563 Y133.506 E9.82229
G1 X125.524 Y133.902 E9.88442
G1 X124.332 Y134.286 E9.9544
G1 X123.439 Y134.531 E10.00614
G1 X122.615 Y134.686 E10.05299
G1 X121.494 Y134.848 E10.11628
G1 X121.086 Y134.896 E10.13923
G1 X120.162 Y134.964 E10.191
G1 X119.608 Y134.967 E10.22196
G1 X118.988 Y134.954 E10.25661
G1 X118.137 Y134.916 E10.30421
G1 X117.215 Y134.831 E10.35595
G1 X116.592 Y134.727 E10.39124
G1 X115.964 Y134.601 E10.42703
G1 X115.258 Y134.445 E10.46743
G1 X114.363 Y134.206 E10.51919
G1 X113.676 Y133.964 E10.55989
G1 X113.128 Y133.748 E10.59281
G1 X112.464 Y133.473 E10.63296
G1 X111.625 Y133.082 E10.68469
G1 X110.856 Y132.642 E10.73419
G1 X110.098 Y132.165 E10.78423
G1 X109.369 Y131.662 E10.83372
G1 X107.724 Y130.426 E10.9487
G1 X107.2 Y130.007 E10.98619
G1 X106.706 Y129.585 E11.02249
G1 X105.924 Y128.846 E11.08261
G1 X105.679 Y128.59 E11.10241
G1 X105.202 Y128.056 E11.14242
G1 X104.987 Y127.799 E11.16114
G1 X104.456 Y127.109 E11.20979
G1 X104.07 Y126.563 E11.24716
G1 X103.458 Y125.593 E11.31124
G1 X103.229 Y125.182 E11.33753
G1 X102.737 Y124.177 E11.40006
G1 X102.478 Y123.571 E11.43688
G1 X102.128 Y122.635 E11.49272
G1 X101.963 Y122.121 E11.52288
G1 X101.652 Y120.914 E11.59253
G1 X101.553 Y120.411 E11.62117
G1 X101.404 Y119.41 E11.67772
G1 X101.355 Y118.921 E11.70518
G1 X101.303 Y118.004 E11.75651
G1 X101.294 Y117.37 E11.79194
G1 X101.34 Y116.22 E11.85625
G1 X101.413 Y115.523 E11.89541
G1 X101.459 Y115.178 E11.91485
G1 X101.595 Y114.388 E11.95965
G1 X101.688 Y113.946 E11.98488
G1 X101.94 Y112.976 E12.04088
G1 X102.084 Y112.512 E12.06803
G1 X102.291 Y111.908 E12.10371
G1 X102.59 Y111.153 E12.14908
G1 X102.901 Y110.439 E12.1926
G1 X103.49 Y109.127 E12.27296
G1 X103.889 Y108.33 E12.32276
G1 X104.385 Y107.433 E12.38004
G1 X104.867 Y106.642 E12.43179
G1 X105.369 Y105.956 E12.47929
G1 X105.796 Y105.418 E12.51767
G1 X106.242 Y104.882 E12.55663
G1 X106.869 Y104.201 E12.60836
G0 F6000 X107.222 Y104.527
G1 F600 X107.606 Y104.166 E12.63781
G1 X108.066 Y103.758 E12.67217
G1 X108.646 Y103.264 E12.71474
G1 X109.36 Y102.709 E12.76527
G1 X109.982 Y102.301 E12.80683
G1 X110.745 Y101.839 E12.85667
G1 X111.263 Y101.541 E12.89007
G1 X112.07 Y101.131 E12.94064
G1 X112.525 Y100.938 E12.96826
G1 X113.156 Y100.688 E13.00619
G1 X113.914 Y100.408 E13.05134
G1 X114.778 Y100.136 E13.10195
G1 X115.315 Y100.008 E13.1328
G1 X116.108 Y99.845 E13.17804
G1 X116.835 Y99.712 E13.21933
G1 X117.732 Y99.589 E13.26992
G1 X118.35 Y99.55 E13.30452
G1 X119.162 Y99.524 E13.34992
G1 X119.862 Y99.514 E13.38904
G1 X120.767 Y99.543 E13.43963
G1 X121.665 Y99.652 E13.49018
G1 X122.55 Y99.839 E13.54072
G1 X123.166 Y100.019 E13.57658
G1 X123.469 Y100.118 E13.59439
G1 X124.202 Y100.385 E13.63798
G1 X124.821 Y100.645 E13.6755
G1 X125.477 Y100.946 E13.71583
G1 X126 Y101.204 E13.74841
G1 X126.287 Y101.356 E13.76656
G1 X126.767 Y101.627 E13.79736
G1 X127.08 Y101.815 E13.81776
G1 X127.668 Y102.196 E13.85691
G1 X128.36 Y102.679 E13.90407
G1 X129.148 Y103.288 E13.95971
G1 X129.75 Y103.802 E14.00395
G1 X130.342 Y104.349 E14.04898
G1 X130.647 Y104.654 E14.07309
G1 X131.056 Y105.088 E14.10641
G1 X131.363 Y105.433 E14.13221
G1 X131.878 Y106.06 E14.17755
G1 X132.32 Y106.644 E14.21848
G1 X132.716 Y107.206 E14.25689
G1 X133.094 Y107.782 E14.29539
G1 X133.503 Y108.456 E14.33944
G1 X133.877 Y109.168 E14.38438
G1 X134.278 Y110.009 E14.43644
G1 X134.607 Y110.779 E14.48323
G1 X134.778 Y111.229 E14.51013
G1 X134.985 Y111.829 E14.54559
G1 X135.094 Y112.18 E14.56613
G1 X135.249 Y112.733 E14.59822
G1 X135.409 Y113.373 E14.63508
G1 X135.552 Y114.036 E14.67298
G1 X135.677 Y114.812 E14.7169
G1 X135.777 Y115.604 E14.76151
G1 X135.846 Y116.396 E14.80593
G1 X135.869 Y116.875 E14.83273
G1 X135.881 Y117.456 E14.8652
G1 X135.877 Y117.912 E14.89068
G1 X135.845 Y118.634 E14.93106
G1 X135.801 Y119.187 E14.96206
G1 X135.747 Y119.697 E14.99071
G1 X135.691 Y120.127 E15.01494
G1 X135.584 Y120.786 E15.05225
G1 X135.472 Y121.354 E15.0846
G1 X135.221 Y122.356 E15.14232
G1 X134.922 Y123.338 E15.19968
G1 X134.573 Y124.306 E15.25717
G1 X134.376 Y124.777 E15.2857
G1 X134.07 Y125.441 E15.32655
G1 X133.708 Y126.158 E15.37143
G1 X133.376 Y126.763 E15.41
G1 X133.232 Y127.006 E15.42578
G1 X132.794 Y127.684 E15.47088
G1 X132.236 Y128.476 E15.52502
G1 X131.726 Y129.14 E15.5718
G1 X131.195 Y129.758 E15.61733
G1 X130.977 Y129.995 E15.63532
G1 X130.335 Y130.634 E15.68593
G1 X129.64 Y131.213 E15.73648
G1 X128.913 Y131.718 E15.78594
G1 X128.486 Y131.988 E15.81417
G1 X127.446 Y132.564 E15.8806
G1 X126.865 Y132.843 E15.91661
G1 X126.369 Y133.067 E15.94702
G1 X125.377 Y133.445 E16.00634
G1 X124.185 Y133.829 E16.07632
G1 X123.312 Y134.068 E16.12689
G1 X122.544 Y134.212 E16.17056
G1 X121.74 Y134.331 E16.21597
G1 X121.029 Y134.419 E16.256
G1 X120.127 Y134.485 E16.30654
G1 X119.618 Y134.487 E16.33498
G1 X118.711 Y134.464 E16.38568
G1 X118.161 Y134.437 E16.41644
G1 X117.26 Y134.352 E16.46701
G1 X116.685 Y134.256 E16.49959
G1 X116.068 Y134.132 E16.53475
G1 X115.362 Y133.976 E16.57515
G1 X114.488 Y133.742 E16.62571
G1 X113.85 Y133.517 E16.66351
G1 X113.312 Y133.305 E16.69582
G1 X112.648 Y133.03 E16.73598
G1 X111.828 Y132.647 E16.78655
G1 X111.112 Y132.236 E16.83268
G1 X110.354 Y131.759 E16.88273
G1 X109.657 Y131.279 E16.93002
G1 X108.012 Y130.043 E17.04499
G1 X107.512 Y129.642 E17.0808
G1 X107.018 Y129.22 E17.11711
G1 X106.271 Y128.514 E17.17454
G1 X106.026 Y128.258 E17.19434
G1 X105.57 Y127.749 E17.23252
G1 X105.355 Y127.492 E17.25125
G1 X104.847 Y126.832 E17.29778
G1 X104.461 Y126.286 E17.33515
G1 X103.878 Y125.359 E17.39634
G1 X103.649 Y124.948 E17.42263
G1 X103.178 Y123.988 E17.48238
G1 X102.919 Y123.382 E17.5192
G1 X102.585 Y122.488 E17.57253
G1 X102.42 Y121.974 E17.60269
G1 X102.123 Y120.821 E17.66922
G1 X102.024 Y120.318 E17.69787
G1 X101.882 Y119.362 E17.75187
G1 X101.833 Y118.873 E17.77933
G1 X101.783 Y117.997 E17.82836
G1 X101.774 Y117.363 E17.86379
G1 X101.817 Y116.264 E17.92525
G1 X101.843 Y115.986 E17.94085
G1 X101.935 Y115.242 E17.98274
G1 X102.064 Y114.487 E18.02553
G1 X102.157 Y114.045 E18.05077
G1 X102.398 Y113.118 E18.10429
G1 X102.542 Y112.654 E18.13144
G1 X102.74 Y112.077 E18.16553
G1 X103.03 Y111.344 E18.20957
G1 X103.339 Y110.635 E18.25279
G1 X103.928 Y109.323 E18.33315
G1 X104.309 Y108.562 E18.3807
G1 X104.805 Y107.665 E18.43798
G1 X105.277 Y106.893 E18.48854
G1 X105.745 Y106.254 E18.53279
G1 X106.172 Y105.716 E18.57117
G1 X106.609 Y105.192 E18.6093
G1 X107.222 Y104.527 E18.65984
G1 F2880 E13.15984
;MESH:11?????????.stl
G0 F6000 X114.961 Y116.033
G0 X114.713 Y116.944
G0 X114.656 Y117.505
G0 X114.714 Y118.064
G0 X114.878 Y118.593
G0 X115.064 Y118.94
G0 X115.068 Y120.562
G0 X115.941 Y121.01
G0 X117.133 Y121.343
G1 F2880 E18.65984
G0 F6000 X117.14 Y121.202
;TYPE:WALL-INNER
G1 F600 X116.759 Y121.154 E18.68129
G1 X116.307 Y121.023 E18.70759
G1 X116.021 Y120.913 E18.72471
G1 X115.517 Y120.663 E18.75615
G1 X115.296 Y120.44 E18.77369
G1 X115.187 Y120.136 E18.79174
G1 X115.182 Y118.91 E18.86024
G1 X114.988 Y118.546 E18.88329
G1 X114.835 Y118.043 E18.91267
G1 X114.785 Y117.59 E18.93813
G1 X114.785 Y117.405 E18.94847
G1 X114.831 Y116.974 E18.97269
G1 X114.985 Y116.466 E19.00235
G1 X115.182 Y116.088 E19.02617
G1 X115.185 Y114.877 E19.09384
G1 X115.291 Y114.571 E19.11193
G1 X115.521 Y114.338 E19.13023
G1 X116.01 Y114.091 E19.16084
G1 X116.307 Y113.978 E19.17859
G1 X116.743 Y113.853 E19.20394
G1 X117.094 Y113.802 E19.22376
G1 X117.5 Y113.774 E19.2465
G1 X117.907 Y113.802 E19.26929
G1 X118.217 Y113.845 E19.28678
G1 X118.627 Y113.955 E19.3105
G1 X118.996 Y114.093 E19.33251
G1 X119.501 Y114.35 E19.36417
G1 X119.738 Y114.618 E19.38417
G1 X119.821 Y114.878 E19.39942
G1 X119.822 Y116.093 E19.46731
G1 X120.009 Y116.449 E19.48978
G1 X120.171 Y116.978 E19.52069
G1 X120.221 Y117.488 E19.54932
G1 X120.174 Y118.025 E19.57944
G1 X120.019 Y118.538 E19.60939
G1 X119.823 Y118.906 E19.63269
G1 X119.822 Y120.064 E19.69739
G1 X119.792 Y120.256 E19.70825
G1 X119.651 Y120.514 E19.72468
G1 X119.511 Y120.648 E19.73551
G1 X118.982 Y120.912 E19.76854
G1 X118.659 Y121.034 E19.78784
G1 X118.253 Y121.149 E19.81142
G1 X117.842 Y121.204 E19.83459
G1 X117.451 Y121.223 E19.85646
G1 X117.14 Y121.202 E19.87388
G0 F6000 X117.811 Y120.725
;TYPE:WALL-OUTER
G1 F600 X117.483 Y120.744 E19.89223
G1 X117.157 Y120.721 E19.9105
G1 X116.877 Y120.685 E19.92627
