;FLAVOR:Marlin
;TIME:1279
;Filament used: 0.648089m
;Layer height: 0.2
;MINX:46.162
;MINY:47.387
;MINZ:0.2
;MAXX:185.28
;MAXY:170.583
;MAXZ:15.5
;Generated with Cura_SteamEngine 5.2.2
M140 S60
M105
M190 S60
M104 S210
M105
M109 S210
M82 ;absolute extrusion mode
; Ender 3 Custom Start G-code
G92 E0 ; Reset Extruder
G28 ; Home all axes
G1 Z2.0 F3000 ; Move Z Axis up little to prevent scratching of Heat Bed
G1 X0.1 Y20 Z0.3 F5000.0 ; Move to start position
G1 X0.1 Y200.0 Z0.3 F1500.0 E15 ; Draw the first line
G1 X0.4 Y200.0 Z0.3 F5000.0 ; Move to side a little
G1 X0.4 Y20 Z0.3 F1500.0 E30 ; Draw the second line
G92 E0 ; Reset Extruder
G1 Z2.0 F3000 ; Move Z Axis up little to prevent scratching of Heat Bed
G1 X5 Y20 Z0.3 F5000.0 ; Move over to prevent blob squish
G92 E0
G92 E0
G1 F2880 E-5.5
;LAYER_COUNT:53
;LAYER:0
M107
G0 F9000 X103.942 Y55.263 Z0.2
;TYPE:SKIRT
G1 F2880 E0
G1 F2135.8 X104.291 Y54.616 E0.02934
G1 X104.51 Y54.241 E0.04667
G1 X105.022 Y53.445 E0.08445
G1 X105.361 Y52.987 E0.10719
G1 X105.602 Y52.679 E0.1228
G1 X106.216 Y51.959 E0.16057
G1 X106.583 Y51.583 E0.18154
G1 X106.937 Y51.236 E0.20132
G1 X107.64 Y50.602 E0.2391
G1 X108.733 Y49.805 E0.29309
G1 X109.251 Y49.473 E0.31765
G1 X110.069 Y48.996 E0.35544
G1 X111.262 Y48.453 E0.40776
G1 X111.832 Y48.233 E0.43215
G1 X112.729 Y47.93 E0.46993
G1 X114.087 Y47.624 E0.52549
G1 X114.678 Y47.529 E0.54938
G1 X115.618 Y47.418 E0.58716
G1 X116.508 Y47.387 E0.62271
G1 X116.941 Y47.389 E0.63999
G1 X117.886 Y47.433 E0.67775
G1 X118.456 Y47.499 E0.70065
G1 X118.902 Y47.562 E0.71863
G1 X119.832 Y47.734 E0.75637
G1 X121.003 Y48.07 E0.805
G1 X121.58 Y48.27 E0.82937
G1 X122.46 Y48.617 E0.86712
G1 X123.652 Y49.235 E0.92071
G1 X124.158 Y49.537 E0.94423
G1 X124.949 Y50.056 E0.98199
G1 X125.59 Y50.552 E1.01434
G1 X125.939 Y50.843 E1.03248
G1 X126.64 Y51.479 E1.07025
G1 X127.456 Y52.378 E1.11871
G1 X127.857 Y52.871 E1.14408
G1 X128.422 Y53.629 E1.18181
G1 X129.138 Y54.836 E1.23782
G1 X129.4 Y55.348 E1.26078
G1 X129.796 Y56.208 E1.29857
G1 X130.079 Y56.981 E1.33142
G1 X130.208 Y57.377 E1.34804
G1 X130.463 Y58.288 E1.3858
G1 X130.593 Y58.922 E1.41163
G1 X130.665 Y59.335 E1.42836
G1 X130.788 Y60.274 E1.46616
G1 X130.825 Y60.881 E1.49043
G1 X130.839 Y61.296 E1.50701
G1 X130.831 Y62.243 E1.5448
G1 X130.788 Y62.803 E1.56722
G1 X130.741 Y63.267 E1.58583
G1 X130.606 Y64.203 E1.62358
G1 X130.316 Y65.389 E1.67231
G1 X130.151 Y65.933 E1.695
G1 X129.838 Y66.826 E1.73277
G1 X129.487 Y67.618 E1.76734
G1 X129.297 Y68.005 E1.78455
G1 X128.844 Y68.836 E1.82232
G1 X128.525 Y69.337 E1.84603
G1 X128.29 Y69.685 E1.86279
G1 X127.728 Y70.446 E1.90055
G1 X127.262 Y70.987 E1.92905
G1 X126.952 Y71.325 E1.94735
G1 X126.284 Y71.995 E1.98511
G1 X125.805 Y72.411 E2.01043
G1 X125.52 Y72.645 E2.02515
G1 X124.764 Y73.214 E2.06292
G1 X124.34 Y73.492 E2.08315
G1 X123.976 Y73.719 E2.10027
G1 X123.152 Y74.186 E2.13808
G1 X122.623 Y74.439 E2.16148
G1 X122.214 Y74.622 E2.17936
G1 X121.335 Y74.972 E2.21712
G1 X120.155 Y75.313 E2.26615
G1 X119.53 Y75.457 E2.29175
G1 X118.599 Y75.63 E2.32954
G1 X117.214 Y75.741 E2.385
G1 X116.596 Y75.752 E2.40967
G1 X115.65 Y75.729 E2.44743
G1 X114.281 Y75.552 E2.50253
G1 X113.673 Y75.435 E2.52724
G1 X112.752 Y75.217 E2.56502
G1 X111.852 Y74.922 E2.60282
G1 X111.404 Y74.743 E2.62207
G1 X110.854 Y74.509 E2.64593
G1 X110 Y74.102 E2.68369
G1 X109.293 Y73.694 E2.71626
G1 X108.953 Y73.481 E2.73228
G1 X108.173 Y72.945 E2.77005
G1 X107.716 Y72.583 E2.79332
G1 X107.399 Y72.318 E2.80981
G1 X106.699 Y71.681 E2.84759
G1 X106.283 Y71.246 E2.87161
G1 X106.003 Y70.937 E2.88825
G1 X105.397 Y70.209 E2.92606
G1 X105.025 Y69.691 E2.95151
G1 X104.749 Y69.283 E2.97117
G1 X104.253 Y68.478 E3.00891
G1 X103.707 Y67.361 E3.05853
G1 X103.491 Y66.849 E3.08071
G1 X103.16 Y65.963 E3.11846
G1 X102.94 Y65.194 E3.15038
G1 X102.838 Y64.783 E3.16729
G1 X102.649 Y63.855 E3.20509
G1 X102.571 Y63.268 E3.22872
G1 X102.523 Y62.816 E3.24686
G1 X102.463 Y61.871 E3.28465
G1 X102.499 Y60.701 E3.33137
G1 X102.548 Y60.114 E3.35488
G1 X102.666 Y59.175 E3.39266
G1 X102.84 Y58.343 E3.42658
G1 X102.935 Y57.961 E3.44229
G1 X103.202 Y57.053 E3.48007
G1 X103.396 Y56.527 E3.50244
G1 X103.555 Y56.127 E3.51962
G1 X103.942 Y55.263 E3.55741
G0 F9000 X104.38 Y55.459
G1 F2135.8 X104.706 Y54.858 E3.5847
G1 X104.925 Y54.483 E3.60203
G1 X105.426 Y53.704 E3.639
G1 X105.739 Y53.283 E3.65993
G1 X105.98 Y52.975 E3.67554
G1 X106.582 Y52.271 E3.71251
G1 X106.919 Y51.926 E3.73176
G1 X107.273 Y51.579 E3.75155
G1 X107.961 Y50.96 E3.78848
G1 X108.992 Y50.209 E3.83939
G1 X109.51 Y49.877 E3.86395
G1 X110.311 Y49.411 E3.90094
G1 X111.435 Y48.901 E3.9502
G1 X112.005 Y48.681 E3.97458
G1 X112.882 Y48.385 E4.01153
G1 X114.164 Y48.098 E4.06396
G1 X114.755 Y48.003 E4.08785
G1 X115.674 Y47.896 E4.12478
G1 X116.506 Y47.867 E4.15801
G1 X116.939 Y47.869 E4.17529
G1 X117.863 Y47.913 E4.21221
G1 X118.388 Y47.974 E4.2333
G1 X118.834 Y48.037 E4.25128
G1 X119.745 Y48.206 E4.28826
G1 X120.846 Y48.523 E4.33399
G1 X121.423 Y48.723 E4.35836
G1 X122.284 Y49.064 E4.39533
G1 X123.406 Y49.647 E4.44579
G1 X123.912 Y49.949 E4.46931
G1 X124.686 Y50.457 E4.50626
G1 X125.283 Y50.921 E4.53644
G1 X125.632 Y51.212 E4.55458
G1 X126.317 Y51.835 E4.59153
G1 X127.083 Y52.681 E4.63708
G1 X127.484 Y53.174 E4.66245
G1 X128.037 Y53.916 E4.69938
G1 X128.711 Y55.055 E4.7522
G1 X128.973 Y55.567 E4.77516
G1 X129.359 Y56.408 E4.81209
G1 X129.623 Y57.13 E4.84277
G1 X129.752 Y57.526 E4.8594
G1 X130 Y58.417 E4.89631
G1 X130.12 Y59.005 E4.92026
G1 X130.192 Y59.418 E4.937
G1 X130.311 Y60.336 E4.97394
G1 X130.345 Y60.898 E4.99641
G1 X130.359 Y61.313 E5.01299
G1 X130.35 Y62.238 E5.04991
G1 X130.31 Y62.754 E5.07056
G1 X130.263 Y63.218 E5.08918
G1 X130.13 Y64.135 E5.12616
G1 X129.857 Y65.249 E5.17194
G1 X129.692 Y65.793 E5.19463
G1 X129.385 Y66.667 E5.2316
G1 X129.056 Y67.406 E5.26388
G1 X128.866 Y67.793 E5.28109
G1 X128.422 Y68.606 E5.31806
G1 X128.127 Y69.068 E5.33994
G1 X127.892 Y69.416 E5.3567
G1 X127.341 Y70.161 E5.39369
G1 X126.908 Y70.663 E5.42014
G1 X126.598 Y71.001 E5.43845
G1 X125.944 Y71.656 E5.47539
G1 X125.501 Y72.04 E5.49879
G1 X125.216 Y72.274 E5.51351
G1 X124.475 Y72.83 E5.55048
G1 X124.086 Y73.085 E5.56905
G1 X123.722 Y73.312 E5.58617
G1 X122.916 Y73.768 E5.62313
G1 X122.427 Y74.001 E5.64475
G1 X122.018 Y74.184 E5.66263
G1 X121.158 Y74.525 E5.69956
G1 X120.047 Y74.845 E5.7457
G1 X119.422 Y74.989 E5.7713
G1 X118.511 Y75.158 E5.80828
G1 X117.206 Y75.261 E5.86053
G1 X116.588 Y75.272 E5.8852
G1 X115.662 Y75.249 E5.92217
G1 X114.371 Y75.081 E5.97413
G1 X113.763 Y74.964 E5.99884
G1 X112.863 Y74.75 E6.03576
G1 X111.592 Y74.301 E6.08956
G1 X111.042 Y74.067 E6.11342
G1 X110.207 Y73.668 E6.15036
G1 X109.548 Y73.288 E6.18072
G1 X109.208 Y73.075 E6.19673
G1 X108.445 Y72.55 E6.2337
G1 X108.023 Y72.215 E6.2552
G1 X107.706 Y71.95 E6.27169
G1 X107.022 Y71.326 E6.30865
G1 X106.638 Y70.923 E6.33086
G1 X106.358 Y70.614 E6.34751
G1 X105.767 Y69.902 E6.38444
G1 X105.423 Y69.423 E6.40798
G1 X105.147 Y69.015 E6.42764
G1 X104.662 Y68.226 E6.4646
G1 X104.149 Y67.175 E6.51128
G1 X103.933 Y66.663 E6.53346
G1 X103.61 Y65.795 E6.57042
G1 X103.406 Y65.078 E6.60017
G1 X103.304 Y64.667 E6.61708
G1 X103.12 Y63.76 E6.65401
G1 X103.048 Y63.217 E6.67588
G1 X103 Y62.765 E6.69402
G1 X102.942 Y61.841 E6.73097
G1 X102.977 Y60.741 E6.77489
G1 X103.026 Y60.154 E6.7984
G1 X103.143 Y59.236 E6.83534
G1 X103.306 Y58.459 E6.86703
G1 X103.401 Y58.077 E6.88274
G1 X103.663 Y57.189 E6.91969
G1 X103.842 Y56.704 E6.94032
G1 X104.001 Y56.304 E6.9575
G1 X104.38 Y55.459 E6.99447
G0 F9000 X104.818 Y55.656
G1 F2135.8 X105.12 Y55.1 E7.01972
G1 X105.339 Y54.725 E7.03705
G1 X105.83 Y53.965 E7.07317
G1 X106.117 Y53.579 E7.09236
G1 X106.358 Y53.271 E7.10797
G1 X107.255 Y52.268 E7.16168
G1 X107.609 Y51.921 E7.18146
G1 X108.282 Y51.317 E7.21755
G1 X109.251 Y50.613 E7.26536
G1 X109.769 Y50.281 E7.28992
G1 X110.552 Y49.827 E7.32604
G1 X111.608 Y49.349 E7.3723
G1 X112.178 Y49.129 E7.39669
G1 X113.036 Y48.841 E7.43281
G1 X114.24 Y48.572 E7.48205
G1 X114.831 Y48.477 E7.50594
G1 X115.73 Y48.373 E7.54206
G1 X116.503 Y48.347 E7.57293
G1 X116.936 Y48.349 E7.59021
G1 X117.84 Y48.393 E7.62634
G1 X118.321 Y48.45 E7.64567
G1 X118.767 Y48.513 E7.66365
G1 X119.657 Y48.679 E7.69978
G1 X120.689 Y48.977 E7.74265
G1 X121.266 Y49.177 E7.76703
G1 X122.107 Y49.511 E7.80314
G1 X123.16 Y50.059 E7.85052
G1 X123.666 Y50.361 E7.87404
G1 X124.422 Y50.859 E7.91017
G1 X124.976 Y51.289 E7.93816
G1 X125.325 Y51.58 E7.9563
G1 X125.993 Y52.19 E7.9924
G1 X126.711 Y52.983 E8.0351
G1 X127.112 Y53.476 E8.06046
G1 X127.651 Y54.203 E8.09658
G1 X128.284 Y55.273 E8.1462
G1 X128.546 Y55.785 E8.16916
G1 X128.922 Y56.608 E8.20527
G1 X129.166 Y57.278 E8.23373
G1 X129.295 Y57.674 E8.25035
G1 X129.537 Y58.546 E8.28647
G1 X129.647 Y59.087 E8.30851
G1 X129.719 Y59.5 E8.32524
G1 X129.835 Y60.398 E8.36138
G1 X129.865 Y60.914 E8.38201
G1 X129.879 Y61.329 E8.39858
G1 X129.87 Y62.234 E8.4347
G1 X129.833 Y62.706 E8.4536
G1 X129.786 Y63.17 E8.47221
G1 X129.655 Y64.065 E8.50832
G1 X129.397 Y65.11 E8.55128
G1 X129.232 Y65.654 E8.57397
G1 X128.932 Y66.508 E8.61009
G1 X128.625 Y67.195 E8.64013
G1 X128.435 Y67.582 E8.65733
G1 X128.001 Y68.376 E8.69345
G1 X127.729 Y68.8 E8.71355
G1 X127.494 Y69.148 E8.73031
G1 X126.955 Y69.874 E8.7664
G1 X126.555 Y70.338 E8.79085
G1 X126.245 Y70.676 E8.80916
G1 X125.604 Y71.316 E8.84531
G1 X125.196 Y71.669 E8.86684
G1 X124.911 Y71.903 E8.88156
G1 X123.832 Y72.678 E8.93458
G1 X123.468 Y72.905 E8.95171
G1 X122.679 Y73.349 E8.98784
G1 X122.231 Y73.563 E9.00766
G1 X121.822 Y73.746 E9.02554
G1 X120.981 Y74.079 E9.06164
G1 X119.939 Y74.378 E9.10491
G1 X119.314 Y74.522 E9.13051
G1 X118.424 Y74.686 E9.16663
G1 X117.197 Y74.781 E9.21575
G1 X116.579 Y74.792 E9.24042
G1 X115.675 Y74.768 E9.27651
G1 X114.462 Y74.61 E9.32533
G1 X113.854 Y74.493 E9.35004
G1 X112.974 Y74.282 E9.38616
G1 X111.78 Y73.86 E9.4367
G1 X111.23 Y73.626 E9.46056
G1 X110.414 Y73.235 E9.49667
G1 X109.803 Y72.881 E9.52486
G1 X109.463 Y72.668 E9.54087
G1 X108.718 Y72.154 E9.577
G1 X108.331 Y71.846 E9.59674
G1 X108.014 Y71.581 E9.61323
G1 X107.346 Y70.971 E9.64933
G1 X106.994 Y70.601 E9.66972
G1 X106.714 Y70.292 E9.68636
G1 X106.137 Y69.595 E9.72247
G1 X105.82 Y69.154 E9.74415
G1 X105.544 Y68.746 E9.76381
G1 X105.071 Y67.974 E9.79995
G1 X104.591 Y66.988 E9.84371
G1 X104.375 Y66.476 E9.86589
G1 X104.061 Y65.628 E9.90198
G1 X103.871 Y64.962 E9.92963
G1 X103.769 Y64.551 E9.94653
G1 X103.591 Y63.664 E9.98264
G1 X103.525 Y63.166 E10.00269
G1 X103.477 Y62.714 E10.02083
G1 X103.422 Y61.811 E10.05694
G1 X103.455 Y60.781 E10.09807
G1 X103.504 Y60.194 E10.12158
G1 X103.62 Y59.297 E10.15768
G1 X103.772 Y58.575 E10.18712
G1 X103.867 Y58.193 E10.20283
G1 X104.124 Y57.325 E10.23896
G1 X104.288 Y56.881 E10.25786
G1 X104.447 Y56.481 E10.27504
G1 X104.818 Y55.656 E10.31114
G1 F2880 E4.81114
;MESH:10?????????.stl
G0 F9000 X113.399 Y59.893
G0 X114.336 Y60.436
G0 X114.732 Y62.34
G0 X115.114 Y62.956
G0 X115.679 Y63.403
G0 X115.99 Y63.511
G0 X116.876 Y63.702
G1 F2880 E10.31114
G0 F9000 X116.891 Y63.843
;TYPE:WALL-INNER
G1 F2135.8 X117.363 Y63.743 E10.3304
G1 X117.728 Y63.58 E10.34635
G1 X117.996 Y63.412 E10.35898
G1 X118.24 Y63.208 E10.37167
G1 X118.452 Y62.973 E10.3843
G1 X118.629 Y62.708 E10.39702
G1 X118.77 Y62.427 E10.40957
G1 X118.892 Y62.047 E10.4255
G1 X118.933 Y61.649 E10.44147
G1 X118.928 Y61.486 E10.44798
G1 X118.922 Y61.329 E10.45425
G1 X118.87 Y61.029 E10.4664
G1 X118.769 Y60.711 E10.47971
G1 X118.596 Y60.362 E10.49526
G1 X118.298 Y59.981 E10.51457
G1 X117.995 Y59.727 E10.53035
G1 X117.66 Y59.517 E10.54613
G1 X117.209 Y59.354 E10.56527
G1 X116.812 Y59.298 E10.58127
G1 X116.499 Y59.298 E10.59376
G1 X116.103 Y59.353 E10.60972
G1 X115.652 Y59.516 E10.62886
G1 X115.251 Y59.768 E10.64776
G1 X114.961 Y60.046 E10.6638
G1 X114.765 Y60.299 E10.67657
G1 X114.608 Y60.567 E10.68897
G1 X114.485 Y60.878 E10.70231
G1 X114.411 Y61.177 E10.71461
G1 X114.369 Y61.571 E10.73042
G1 X114.41 Y61.963 E10.74615
G1 X114.485 Y62.261 E10.75842
G1 X114.635 Y62.64 E10.77469
G1 X114.859 Y62.973 E10.7907
G1 X115.071 Y63.208 E10.80334
G1 X115.314 Y63.412 E10.816
G1 X115.584 Y63.58 E10.82869
G1 X115.948 Y63.742 E10.84459
G1 X116.42 Y63.843 E10.86386
G1 X116.891 Y63.843 E10.88266
G0 F9000 X116.941 Y64.323
;TYPE:WALL-OUTER
G1 F2135.8 X117.512 Y64.202 E10.90595
G1 X117.954 Y64.005 E10.92527
G1 X118.279 Y63.802 E10.94056
G1 X118.574 Y63.554 E10.95594
G1 X118.832 Y63.269 E10.97129
G1 X119.045 Y62.95 E10.9866
G1 X119.216 Y62.609 E11.00182
G1 X119.364 Y62.146 E11.02122
G1 X119.414 Y61.665 E11.04052
G1 X119.408 Y61.47 E11.04831
G1 X119.401 Y61.279 E11.05594
G1 X119.337 Y60.915 E11.07069
G1 X119.215 Y60.531 E11.08677
G1 X119.004 Y60.105 E11.10574
G1 X118.645 Y59.646 E11.129
G1 X118.279 Y59.338 E11.14809
G1 X117.872 Y59.083 E11.16726
G1 X117.325 Y58.886 E11.19047
G1 X116.846 Y58.818 E11.20978
G1 X116.465 Y58.818 E11.22498
G1 X115.987 Y58.885 E11.24425
G1 X115.44 Y59.082 E11.26745
G1 X114.954 Y59.388 E11.29037
G1 X114.603 Y59.724 E11.30977
G1 X114.367 Y60.029 E11.32516
G1 X114.175 Y60.356 E11.34029
G1 X114.027 Y60.731 E11.35639
G1 X113.937 Y61.093 E11.37127
G1 X113.886 Y61.571 E11.39046
G1 X113.936 Y62.047 E11.40956
G1 X114.027 Y62.409 E11.42446
G1 X114.208 Y62.865 E11.44404
G1 X114.479 Y63.269 E11.46346
G1 X114.737 Y63.554 E11.4788
G1 X115.032 Y63.802 E11.49418
G1 X115.358 Y64.005 E11.50951
G1 X115.799 Y64.202 E11.52879
G1 X116.37 Y64.323 E11.55208
G1 X116.941 Y64.323 E11.57487
G0 F9000 X116.874 Y63.664
G0 X115.96 Y63.594
G0 X116.084 Y63.32
;TYPE:SKIN
G1 F2135.8 X116.469 Y63.403 E11.59059
G1 X116.842 Y63.403 E11.60548
G1 X117.228 Y63.32 E11.62124
G1 X117.521 Y63.189 E11.63405
G1 X117.738 Y63.053 E11.64427
G1 X117.935 Y62.89 E11.65448
G1 X118.104 Y62.702 E11.66456
G1 X118.331 Y62.361 E11.68091
G1 X118.458 Y61.958 E11.69778
G1 X118.491 Y61.633 E11.71082
G1 X118.488 Y61.496 E11.71629
G1 X118.444 Y61.147 E11.73033
G1 X118.359 Y60.87 E11.74189
G1 X118.223 Y60.602 E11.75389
G1 X117.977 Y60.288 E11.76981
G1 X117.735 Y60.084 E11.78244
G1 X117.469 Y59.916 E11.795
G1 X117.104 Y59.785 E11.81047
G1 X116.655 Y59.721 E11.82857
G1 X116.208 Y59.784 E11.84659
G1 X115.844 Y59.914 E11.86202
G1 X115.525 Y60.115 E11.87707
G1 X115.29 Y60.342 E11.89011
G1 X115.04 Y60.667 E11.90647
G1 X114.858 Y61.144 E11.92685
G1 X114.812 Y61.574 E11.94411
G1 X114.857 Y61.993 E11.96093
G1 X115.026 Y62.432 E11.9797
G1 X115.206 Y62.702 E11.99266
G1 X115.377 Y62.89 E12.0028
G1 X115.571 Y63.053 E12.01291
G1 X115.791 Y63.189 E12.02324
G1 X116.084 Y63.32 E12.03605
G0 F9000 X115.941 Y62.993
G1 F2135.8 X115.22 Y62.272 E12.07674
G0 F9000 X115.066 Y61.439
G1 F2135.8 X116.789 Y63.163 E12.17402
G0 F9000 X117.32 Y63.014
G1 F2135.8 X115.206 Y60.9 E12.29335
G0 F9000 X115.478 Y60.493
G1 F2135.8 X117.729 Y62.744 E12.4204
G0 F9000 X118.026 Y62.363
G1 F2135.8 X115.854 Y60.191 E12.543
G0 F9000 X116.348 Y60.006
G1 F2135.8 X118.224 Y61.881 E12.64886
G0 F9000 X118.202 Y61.181
G1 F2135.8 X117.038 Y60.017 E12.71456
;MESH:NONMESH
G0 F300 X117.038 Y60.017 Z0.4
G0 F9000 X117.113 Y59.482
G0 X117.876 Y59.889
G0 X118.302 Y60.312
G0 X118.634 Y60.946
G0 X118.731 Y61.642
G0 X118.584 Y62.351
G0 X118.195 Y62.957
G0 X117.633 Y63.403
G0 X116.874 Y63.664
G0 X116.904 Y63.963
;TIME_ELAPSED:15.788150
;LAYER:1
M106 S85
;TYPE:WALL-INNER
;MESH:10?????????.stl
G1 F600 X117.4 Y63.857 E12.73143
G1 X117.784 Y63.686 E12.74541
G1 X118.067 Y63.51 E12.7565
G1 X118.324 Y63.295 E12.76764
G1 X118.547 Y63.047 E12.77873
G1 X118.734 Y62.768 E12.78991
G1 X118.881 Y62.472 E12.8009
G1 X119.013 Y62.064 E12.81516
G1 X119.053 Y61.654 E12.82886
G1 X119.048 Y61.482 E12.83459
G1 X119.042 Y61.317 E12.84008
G1 X118.986 Y61.001 E12.85075
G1 X118.88 Y60.666 E12.86244
G1 X118.698 Y60.298 E12.87609
G1 X118.384 Y59.897 E12.89303
G1 X118.066 Y59.63 E12.90684
G1 X117.713 Y59.408 E12.92071
G1 X117.238 Y59.237 E12.9375
G1 X116.82 Y59.178 E12.95154
G1 X116.49 Y59.178 E12.96252
G1 X116.074 Y59.236 E12.97649
G1 X115.599 Y59.408 E12.99329
G1 X115.245 Y59.63 E13.00719
G1 X114.923 Y59.9 E13.02117
G1 X114.665 Y60.232 E13.03515
G1 X114.5 Y60.514 E13.04602
G1 X114.37 Y60.842 E13.05775
