;FLAVOR:Marlin
;TIME:1655
;Filament used: 1.96004m
;Layer height: 0.2
;MINX:69.3
;MINY:84.002
;MINZ:0.2
;MAXX:165.699
;MAXY:142.902
;MAXZ:12
;Generated with Cura_SteamEngine 5.2.2
M140 S60
M105
M190 S60
M104 S210
M105
M109 S210
M82 ;absolute extrusion mode
; Ender 3 Custom Start G-code
G92 E0 ; Reset Extruder
G28 ; Home all axes
G1 Z2.0 F3000 ; Move Z Axis up little to prevent scratching of Heat Bed
G1 X0.1 Y20 Z0.3 F5000.0 ; Move to start position
G1 X0.1 Y200.0 Z0.3 F1500.0 E15 ; Draw the first line
G1 X0.4 Y200.0 Z0.3 F5000.0 ; Move to side a little
G1 X0.4 Y20 Z0.3 F1500.0 E30 ; Draw the second line
G92 E0 ; Reset Extruder
G1 Z2.0 F3000 ; Move Z Axis up little to prevent scratching of Heat Bed
G1 X5 Y20 Z0.3 F5000.0 ; Move over to prevent blob squish
G92 E0
G92 E0
G1 F2880 E-5.5
;LAYER_COUNT:60
;LAYER:0
M107
G0 F9000 X77.03 Y89.652 Z0.2
;TYPE:SKIRT
G1 F2880 E0
G1 F3000 X77.476 Y89.27 E0.02344
G1 X77.964 Y88.875 E0.0485
G1 X78.476 Y88.484 E0.07421
G1 X79.186 Y87.976 E0.10905
G1 X79.603 Y87.699 E0.12903
G1 X80.102 Y87.383 E0.15261
G1 X80.507 Y87.138 E0.1715
G1 X81.023 Y86.846 E0.19516
G1 X81.532 Y86.572 E0.21823
G1 X82.107 Y86.284 E0.2439
G1 X82.703 Y86.006 E0.27015
G1 X83.271 Y85.759 E0.29487
G1 X83.865 Y85.521 E0.32041
G1 X84.669 Y85.228 E0.35456
G1 X85.13 Y85.078 E0.37391
G1 X85.708 Y84.903 E0.39802
G1 X86.313 Y84.738 E0.42305
G1 X86.956 Y84.582 E0.44945
G1 X87.535 Y84.457 E0.47309
G1 X88.149 Y84.342 E0.49803
G1 X88.839 Y84.235 E0.5259
G1 X89.617 Y84.139 E0.55718
G1 X90.352 Y84.073 E0.58664
G1 X91.037 Y84.034 E0.61402
G1 X91.52 Y84.017 E0.63331
G1 X92.692 Y84.002 E0.68009
G1 X142.308 Y84.002 E2.66037
G1 X143.473 Y84.017 E2.70687
G1 X144.457 Y84.06 E2.74619
G1 X144.945 Y84.096 E2.76572
G1 X145.394 Y84.139 E2.78372
G1 X145.915 Y84.201 E2.80466
G1 X146.522 Y84.288 E2.82913
G1 X147.098 Y84.386 E2.85245
G1 X147.697 Y84.504 E2.87682
G1 X148.294 Y84.639 E2.90125
G1 X149.244 Y84.888 E2.94045
G1 X149.851 Y85.073 E2.96577
G1 X150.41 Y85.257 E2.98926
G1 X150.901 Y85.431 E3.01005
G1 X151.302 Y85.584 E3.02718
G1 X151.802 Y85.789 E3.04875
G1 X152.71 Y86.194 E3.08843
G1 X153.248 Y86.46 E3.11239
G1 X153.769 Y86.732 E3.13584
G1 X154.32 Y87.039 E3.16102
G1 X154.914 Y87.393 E3.18862
G1 X155.355 Y87.67 E3.2094
G1 X155.703 Y87.9 E3.22605
G1 X156.13 Y88.197 E3.24681
G1 X156.574 Y88.521 E3.26875
G1 X157.07 Y88.9 E3.29366
G1 X157.419 Y89.183 E3.3116
G1 X157.88 Y89.573 E3.3357
G1 X158.337 Y89.982 E3.36018
G1 X158.806 Y90.425 E3.38592
G1 X159.194 Y90.81 E3.40774
G1 X159.58 Y91.212 E3.42998
G1 X160.03 Y91.71 E3.45677
G1 X160.493 Y92.254 E3.48528
G1 X160.882 Y92.738 E3.51007
G1 X161.236 Y93.204 E3.53342
G1 X161.743 Y93.914 E3.56825
G1 X162.029 Y94.346 E3.58892
G1 X162.319 Y94.806 E3.61063
G1 X162.599 Y95.275 E3.63243
G1 X162.946 Y95.89 E3.66061
G1 X163.262 Y96.492 E3.68775
G1 X163.52 Y97.022 E3.71127
G1 X163.773 Y97.573 E3.73547
G1 X164.156 Y98.503 E3.77562
G1 X164.375 Y99.092 E3.8007
G1 X164.579 Y99.693 E3.82603
G1 X164.842 Y100.557 E3.86207
G1 X164.975 Y101.054 E3.88261
G1 X165.12 Y101.651 E3.90713
G1 X165.248 Y102.251 E3.93162
G1 X165.363 Y102.871 E3.95678
G1 X165.452 Y103.427 E3.97926
G1 X165.525 Y103.972 E4.0012
G1 X165.591 Y104.594 E4.02617
G1 X165.648 Y105.33 E4.05563
G1 X165.68 Y106.017 E4.08308
G1 X165.699 Y107.213 E4.13082
G1 X165.699 Y131.12 E5.085
G1 X165.689 Y131.847 E5.11402
G1 X165.636 Y132.792 E5.1518
G1 X165.503 Y133.729 E5.18957
G1 X165.292 Y134.651 E5.22732
G1 X165.004 Y135.553 E5.26511
G1 X164.641 Y136.427 E5.30288
G1 X164.205 Y137.267 E5.34066
G1 X163.699 Y138.067 E5.37844
G1 X163.128 Y138.822 E5.41622
G1 X162.496 Y139.525 E5.45395
G1 X161.806 Y140.173 E5.49173
G1 X161.064 Y140.761 E5.52951
G1 X160.275 Y141.283 E5.56727
G1 X159.445 Y141.737 E5.60503
G1 X158.579 Y142.12 E5.64283
G1 X157.684 Y142.428 E5.6806
G1 X156.767 Y142.659 E5.71835
G1 X155.833 Y142.812 E5.75612
G1 X154.805 Y142.889 E5.79727
G1 X154.17 Y142.902 E5.82261
G1 X81.063 Y142.901 E8.74047
G1 X80.365 Y142.892 E8.76833
G1 X79.42 Y142.84 E8.80611
G1 X78.483 Y142.708 E8.84388
G1 X77.56 Y142.498 E8.88166
G1 X76.658 Y142.21 E8.91945
G1 X75.784 Y141.848 E8.9572
G1 X74.944 Y141.412 E8.99498
G1 X74.143 Y140.908 E9.03275
G1 X73.388 Y140.338 E9.07051
G1 X72.683 Y139.706 E9.1083
G1 X72.035 Y139.016 E9.14608
G1 X71.447 Y138.275 E9.18383
G1 X70.924 Y137.486 E9.22161
G1 X70.469 Y136.656 E9.25939
G1 X70.086 Y135.791 E9.29715
G1 X69.777 Y134.896 E9.33494
G1 X69.545 Y133.979 E9.37269
G1 X69.391 Y133.045 E9.41047
G1 X69.313 Y131.996 E9.45245
G1 X69.3 Y131.36 E9.47784
G1 X69.301 Y107.242 E10.44044
G1 X69.314 Y106.264 E10.47948
G1 X69.355 Y105.294 E10.51823
G1 X69.39 Y104.802 E10.53792
G1 X69.432 Y104.355 E10.55584
G1 X69.491 Y103.854 E10.57597
G1 X69.571 Y103.281 E10.59906
G1 X69.673 Y102.672 E10.62371
G1 X69.812 Y101.964 E10.65251
G1 X69.953 Y101.342 E10.67796
G1 X70.086 Y100.823 E10.69934
G1 X70.243 Y100.269 E10.72233
G1 X70.441 Y99.634 E10.74887
G1 X70.643 Y99.045 E10.77373
G1 X70.87 Y98.438 E10.79959
G1 X71.101 Y97.868 E10.82414
G1 X71.327 Y97.352 E10.84662
G1 X71.604 Y96.765 E10.87253
G1 X71.973 Y96.04 E10.905
G1 X72.286 Y95.468 E10.93102
G1 X72.734 Y94.722 E10.96575
G1 X73.133 Y94.102 E10.99518
G1 X73.51 Y93.552 E11.02179
G1 X73.842 Y93.098 E11.04424
G1 X74.165 Y92.678 E11.06539
G1 X74.536 Y92.218 E11.08897
G1 X74.989 Y91.691 E11.11671
G1 X75.545 Y91.083 E11.14959
G1 X76.077 Y90.539 E11.17996
G1 X76.583 Y90.056 E11.20788
G1 X77.03 Y89.652 E11.23193
G0 F9000 X77.343 Y90.016
G1 F3000 X77.789 Y89.634 E11.25537
G1 X78.256 Y89.256 E11.27935
G1 X78.768 Y88.865 E11.30506
G1 X79.46 Y88.37 E11.33902
G1 X79.86 Y88.104 E11.35819
G1 X80.359 Y87.788 E11.38176
G1 X80.746 Y87.554 E11.39981
G1 X81.251 Y87.269 E11.42296
G1 X81.76 Y86.995 E11.44603
G1 X82.309 Y86.719 E11.47056
G1 X82.905 Y86.441 E11.4968
G1 X83.45 Y86.205 E11.52051
G1 X84.044 Y85.967 E11.54605
G1 X84.828 Y85.681 E11.57936
G1 X85.27 Y85.537 E11.59791
G1 X85.848 Y85.362 E11.62201
G1 X86.427 Y85.204 E11.64597
G1 X87.07 Y85.048 E11.67237
G1 X87.623 Y84.929 E11.69495
G1 X88.237 Y84.814 E11.71988
G1 X88.898 Y84.712 E11.74658
G1 X89.676 Y84.616 E11.77786
G1 X90.38 Y84.552 E11.80608
G1 X91.065 Y84.513 E11.83346
G1 X91.527 Y84.497 E11.85191
G1 X92.692 Y84.482 E11.89842
G1 X142.308 Y84.482 E13.8787
G1 X143.467 Y84.497 E13.92496
G1 X144.432 Y84.539 E13.96351
G1 X145.348 Y84.617 E14.0002
G1 X145.847 Y84.676 E14.02026
G1 X146.454 Y84.763 E14.04473
G1 X147.005 Y84.857 E14.06704
G1 X147.604 Y84.975 E14.09141
G1 X148.176 Y85.104 E14.11481
G1 X149.108 Y85.349 E14.15327
G1 X149.701 Y85.528 E14.178
G1 X150.26 Y85.712 E14.20148
G1 X150.729 Y85.879 E14.22135
G1 X151.13 Y86.032 E14.23848
G1 X151.61 Y86.228 E14.25918
G1 X152.158 Y86.468 E14.28306
G1 X152.71 Y86.727 E14.30739
G1 X153.547 Y87.157 E14.34495
G1 X154.074 Y87.451 E14.36903
G1 X154.668 Y87.805 E14.39663
G1 X155.091 Y88.071 E14.41658
G1 X155.439 Y88.301 E14.43322
G1 X155.847 Y88.584 E14.45304
G1 X156.291 Y88.908 E14.47498
G1 X156.775 Y89.279 E14.49932
G1 X157.109 Y89.55 E14.51649
G1 X157.57 Y89.94 E14.54059
G1 X158.007 Y90.331 E14.56399
G1 X158.476 Y90.774 E14.58974
G1 X158.848 Y91.142 E14.61063
G1 X159.234 Y91.544 E14.63287
G1 X159.665 Y92.021 E14.65853
G1 X160.128 Y92.565 E14.68704
G1 X160.5 Y93.028 E14.71074
G1 X160.854 Y93.494 E14.7341
G1 X161.349 Y94.189 E14.76816
G1 X161.623 Y94.602 E14.78794
G1 X161.913 Y95.062 E14.80964
G1 X162.181 Y95.511 E14.83051
G1 X162.528 Y96.126 E14.8587
G1 X162.831 Y96.702 E14.88467
G1 X163.089 Y97.232 E14.9082
G1 X163.335 Y97.768 E14.93174
G1 X163.711 Y98.683 E14.97122
G1 X163.92 Y99.246 E14.99519
G1 X164.124 Y99.847 E15.02052
G1 X164.381 Y100.691 E15.05573
G1 X164.508 Y101.167 E15.0754
G1 X164.653 Y101.764 E15.09992
G1 X164.776 Y102.339 E15.12338
G1 X164.891 Y102.959 E15.14855
G1 X164.976 Y103.491 E15.17005
G1 X165.049 Y104.036 E15.192
G1 X165.112 Y104.631 E15.21588
G1 X165.169 Y105.367 E15.24534
G1 X165.2 Y106.025 E15.27164
G1 X165.219 Y107.221 E15.31938
G1 X165.219 Y131.113 E16.27296
G1 X165.209 Y131.84 E16.30198
G1 X165.156 Y132.765 E16.33896
G1 X165.024 Y133.681 E16.37589
G1 X164.813 Y134.583 E16.41287
G1 X164.525 Y135.463 E16.44982
G1 X164.163 Y136.314 E16.48673
G1 X163.728 Y137.132 E16.52371
G1 X163.224 Y137.909 E16.56067
G1 X162.655 Y138.639 E16.59762
G1 X162.025 Y139.318 E16.63458
G1 X161.339 Y139.94 E16.67154
G1 X160.602 Y140.5 E16.70849
G1 X159.82 Y140.994 E16.7454
G1 X158.997 Y141.419 E16.78237
G1 X158.141 Y141.772 E16.81933
G1 X157.258 Y142.05 E16.85628
G1 X156.354 Y142.25 E16.89323
G1 X155.436 Y142.371 E16.93019
G1 X154.791 Y142.409 E16.95597
G1 X154.17 Y142.422 E16.98076
G1 X81.069 Y142.421 E19.89838
G1 X80.371 Y142.412 E19.92624
G1 X79.446 Y142.36 E19.96322
G1 X78.53 Y142.229 E20.00015
G1 X77.628 Y142.019 E20.03712
G1 X76.748 Y141.732 E20.07406
G1 X75.896 Y141.37 E20.11101
G1 X75.078 Y140.935 E20.14799
G1 X74.301 Y140.432 E20.18493
G1 X73.57 Y139.864 E20.22188
G1 X72.891 Y139.235 E20.25882
G1 X72.268 Y138.549 E20.2958
G1 X71.708 Y137.813 E20.33271
G1 X71.212 Y137.031 E20.36967
G1 X70.786 Y136.208 E20.40666
G1 X70.433 Y135.353 E20.44358
G1 X70.155 Y134.47 E20.48053
G1 X69.954 Y133.566 E20.51749
G1 X69.832 Y132.648 E20.55445
G1 X69.793 Y131.983 E20.58104
G1 X69.78 Y131.36 E20.60591
G1 X69.781 Y107.249 E21.56823
G1 X69.794 Y106.271 E21.60727
G1 X69.834 Y105.318 E21.64534
G1 X69.91 Y104.4 E21.6821
G1 X69.966 Y103.921 E21.70135
G1 X70.046 Y103.348 E21.72444
G1 X70.144 Y102.765 E21.74804
G1 X70.283 Y102.057 E21.77684
G1 X70.418 Y101.461 E21.80123
G1 X70.551 Y100.942 E21.82261
G1 X70.701 Y100.412 E21.84459
G1 X70.899 Y99.777 E21.87114
G1 X71.092 Y99.213 E21.89493
G1 X71.319 Y98.606 E21.9208
G1 X71.541 Y98.06 E21.94432
G1 X71.767 Y97.544 E21.96681
G1 X72.032 Y96.982 E21.99161
G1 X72.401 Y96.257 E22.02408
G1 X72.7 Y95.71 E22.04896
G1 X73.137 Y94.982 E22.08284
G1 X73.536 Y94.362 E22.11227
G1 X73.898 Y93.835 E22.13779
G1 X74.23 Y93.381 E22.16024
G1 X74.539 Y92.979 E22.18048
G1 X74.91 Y92.519 E22.20406
G1 X75.343 Y92.015 E22.23058
G1 X75.899 Y91.407 E22.26347
G1 X76.408 Y90.887 E22.29251
G1 X76.914 Y90.404 E22.32043
G1 X77.343 Y90.016 E22.34351
G0 F9000 X77.655 Y90.381
G1 F3000 X78.101 Y89.999 E22.36695
G1 X78.547 Y89.638 E22.38985
G1 X79.059 Y89.247 E22.41556
G1 X79.735 Y88.763 E22.44875
G1 X80.116 Y88.51 E22.467
G1 X80.615 Y88.194 E22.49058
G1 X80.985 Y87.97 E22.50784
G1 X81.478 Y87.691 E22.53045
G1 X81.987 Y87.417 E22.55352
G1 X82.512 Y87.154 E22.57696
G1 X83.108 Y86.876 E22.6032
G1 X83.628 Y86.651 E22.62582
G1 X84.222 Y86.413 E22.65136
G1 X84.642 Y86.255 E22.66927
G1 X85.409 Y85.996 E22.70158
G1 X85.987 Y85.821 E22.72568
G1 X86.54 Y85.671 E22.74855
G1 X87.183 Y85.515 E22.77496
G1 X87.712 Y85.401 E22.79656
G1 X88.326 Y85.286 E22.82149
G1 X88.957 Y85.188 E22.84698
G1 X89.735 Y85.092 E22.87826
G1 X90.407 Y85.032 E22.90519
G1 X91.092 Y84.993 E22.93257
G1 X91.533 Y84.977 E22.95019
G1 X92.692 Y84.962 E22.99645
G1 X142.308 Y84.962 E24.97673
G1 X143.46 Y84.977 E25.02271
G1 X144.408 Y85.019 E25.06059
G1 X145.302 Y85.095 E25.0964
G1 X145.779 Y85.152 E25.11557
G1 X146.386 Y85.239 E25.14005
G1 X146.912 Y85.328 E25.16134
G1 X147.511 Y85.446 E25.1857
G1 X148.057 Y85.569 E25.20804
G1 X148.973 Y85.809 E25.24584
G1 X149.551 Y85.984 E25.26994
G1 X150.11 Y86.168 E25.29343
G1 X150.959 Y86.481 E25.32954
G1 X151.417 Y86.668 E25.34929
G1 X151.965 Y86.908 E25.37317
G1 X152.502 Y87.159 E25.39682
G1 X153.325 Y87.583 E25.43377
G1 X153.828 Y87.864 E25.45677
G1 X154.422 Y88.218 E25.48437
G1 X154.826 Y88.471 E25.50339
G1 X155.174 Y88.701 E25.52004
G1 X155.564 Y88.972 E25.539
G1 X156.008 Y89.296 E25.56094
G1 X156.48 Y89.657 E25.58465
G1 X157.26 Y90.306 E25.62515
G1 X157.677 Y90.68 E25.64751
G1 X158.146 Y91.123 E25.67326
G1 X158.501 Y91.475 E25.69321
G1 X158.887 Y91.877 E25.71545
G1 X159.299 Y92.332 E25.73995
G1 X159.762 Y92.876 E25.76846
G1 X160.118 Y93.319 E25.79115
G1 X160.719 Y94.123 E25.83121
G1 X160.956 Y94.463 E25.84775
G1 X161.217 Y94.858 E25.86665
G1 X161.507 Y95.318 E25.88835
G1 X161.763 Y95.747 E25.90829
G1 X162.11 Y96.362 E25.93647
G1 X162.399 Y96.912 E25.96127
G1 X162.657 Y97.442 E25.9848
G1 X162.896 Y97.964 E26.00771
G1 X163.266 Y98.862 E26.04648
G1 X163.466 Y99.401 E26.06942
G1 X163.67 Y100.002 E26.09475
G1 X163.92 Y100.826 E26.12912
G1 X164.042 Y101.28 E26.14789
G1 X164.187 Y101.877 E26.17241
G1 X164.304 Y102.426 E26.19481
G1 X164.419 Y103.046 E26.21998
G1 X164.5 Y103.555 E26.24055
G1 X164.573 Y104.1 E26.26249
G1 X164.633 Y104.668 E26.28529
G1 X164.69 Y105.404 E26.31475
G1 X164.72 Y106.032 E26.33985
G1 X164.739 Y107.228 E26.38759
G1 X164.739 Y131.107 E27.34065
G1 X164.729 Y131.834 E27.36967
G1 X164.677 Y132.737 E27.40577
G1 X164.545 Y133.632 E27.44188
G1 X164.334 Y134.512 E27.478
G1 X164.047 Y135.371 E27.51414
G1 X163.685 Y136.2 E27.55025
G1 X163.251 Y136.994 E27.58636
G1 X162.749 Y137.747 E27.62248
G1 X162.182 Y138.452 E27.65859
G1 X161.556 Y139.105 E27.6947
G1 X160.874 Y139.7 E27.73082
G1 X160.142 Y140.232 E27.76694
G1 X159.366 Y140.698 E27.80306
G1 X158.552 Y141.093 E27.83918
G1 X157.706 Y141.415 E27.8753
G1 X156.836 Y141.661 E27.91139
G1 X155.946 Y141.829 E27.94754
G1 X154.778 Y141.929 E27.99433
G1 X154.17 Y141.942 E28.0186
G1 X81.075 Y141.941 E30.93598
G1 X80.377 Y141.932 E30.96384
G1 X79.474 Y141.881 E30.99994
G1 X78.578 Y141.749 E31.03608
G1 X77.698 Y141.54 E31.07218
G1 X76.84 Y141.253 E31.10829
G1 X76.01 Y140.892 E31.14442
G1 X75.216 Y140.459 E31.18052
G1 X74.462 Y139.957 E31.21667
G1 X73.756 Y139.391 E31.25278
G1 X73.103 Y138.765 E31.28889
G1 X72.508 Y138.084 E31.32498
G1 X71.975 Y137.352 E31.36112
G1 X71.509 Y136.577 E31.39721
G1 X71.113 Y135.763 E31.43334
G1 X70.79 Y134.918 E31.46945
G1 X70.543 Y134.047 E31.50558
G1 X70.374 Y133.158 E31.5417
G1 X70.273 Y131.97 E31.58929
G1 X70.26 Y131.36 E31.61364
G1 X70.261 Y107.255 E32.57572
G1 X70.274 Y106.277 E32.61476
G1 X70.314 Y105.341 E32.65215
G1 X70.346 Y104.892 E32.67012
G1 X70.441 Y103.987 E32.70644
G1 X70.521 Y103.414 E32.72953
G1 X70.615 Y102.857 E32.75207
G1 X70.754 Y102.149 E32.78087
G1 X70.883 Y101.58 E32.80416
G1 X71.016 Y101.061 E32.82554
G1 X71.159 Y100.555 E32.84653
G1 X71.357 Y99.92 E32.87308
G1 X71.542 Y99.381 E32.89582
G1 X71.769 Y98.774 E32.92169
G1 X71.98 Y98.253 E32.94412
G1 X72.206 Y97.737 E32.9666
G1 X72.46 Y97.2 E32.99031
G1 X72.829 Y96.475 E33.02278
G1 X73.115 Y95.952 E33.04657
G1 X73.541 Y95.241 E33.07965
G1 X73.94 Y94.621 E33.10908
G1 X74.285 Y94.118 E33.13343
G1 X74.617 Y93.664 E33.15587
G1 X74.912 Y93.28 E33.1752
G1 X75.283 Y92.82 E33.19879
G1 X75.697 Y92.339 E33.22412
G1 X76.253 Y91.731 E33.257
G1 X76.74 Y91.234 E33.28477
G1 X77.246 Y90.751 E33.31269
G1 X77.655 Y90.381 E33.3347
G1 F2880 E27.8347
;MESH:?????????.stl
G0 F9000 X79.835 Y106.683
G0 X80.919 Y106.713
G0 X81.37 Y130.832
G1 F2880 E33.3347
G0 F9000 X81.22 Y130.982
;TYPE:WALL-INNER
G1 F3000 X153.781 Y130.982 E36.23077
G1 X153.781 Y106.861 E37.19349
G1 X153.763 Y106.118 E37.22315
G1 X153.716 Y105.537 E37.24642
G1 X153.638 Y104.958 E37.26974
G1 X153.526 Y104.387 E37.29296
G1 X153.389 Y103.832 E37.31578
G1 X153.216 Y103.261 E37.33959
G1 X153.014 Y102.714 E37.36286
G1 X152.783 Y102.178 E37.38616
G1 X152.522 Y101.653 E37.40956
G1 X152.237 Y101.146 E37.43277
G1 X151.922 Y100.656 E37.45602
G1 X151.581 Y100.18 E37.47939
G1 X151.215 Y99.724 E37.50273
G1 X150.825 Y99.291 E37.52599
G1 X150.412 Y98.876 E37.54936
G1 X149.978 Y98.487 E37.57262
G1 X149.522 Y98.121 E37.59595
G1 X149.049 Y97.781 E37.6192
G1 X148.559 Y97.467 E37.64243
G1 X148.049 Y97.18 E37.66579
G1 X147.525 Y96.919 E37.68915
G1 X146.989 Y96.688 E37.71245
G1 X146.428 Y96.481 E37.73632
G1 X145.885 Y96.317 E37.75895
G1 X145.315 Y96.176 E37.78239
G1 X144.744 Y96.065 E37.80561
G1 X144.164 Y95.987 E37.82896
G1 X143.584 Y95.939 E37.85219
G1 X142.99 Y95.922 E37.87591
G1 X92.009 Y95.922 E39.91067
G1 X91.418 Y95.939 E39.93427
G1 X90.836 Y95.986 E39.95757
G1 X90.259 Y96.065 E39.98082
G1 X89.684 Y96.176 E40.00419
G1 X89.129 Y96.313 E40.02701
G1 X88.559 Y96.486 E40.05078
G1 X88.013 Y96.688 E40.07402
G1 X87.475 Y96.919 E40.09739
G1 X86.95 Y97.18 E40.12079
G1 X86.444 Y97.465 E40.14397
G1 X85.953 Y97.78 E40.16725
G1 X85.477 Y98.121 E40.19062
